luts/Cinematic Teal & Orange.cube
# Cinematic Teal & Orange LUT
LUT_3D_SIZE 9
0.000000 0.003500 0.021000
0.081226 0.012615 0.031045
0.169452 0.021730 0.041091
0.257678 0.030846 0.051136
0.346282 0.039980 0.060864
0.436237 0.049163 0.069445
0.526408 0.058327 0.077823
0.616796 0.067473 0.085996
0.707399 0.076600 0.093966
0.016467 0.115414 0.054793
0.105676 0.124575 0.064012
0.195710 0.133751 0.072519
0.285960 0.142909 0.080822
0.376426 0.152048 0.088921
0.467108 0.161169 0.096816
0.558007 0.170271 0.104508
0.649122 0.179354 0.111995
0.740454 0.188419 0.119279
0.045540 0.227488 0.083794
0.136085 0.236621 0.091819
0.226846 0.245734 0.099640
0.317824 0.254830 0.107257
0.409018 0.263906 0.114670
0.500428 0.272965 0.121880
0.592054 0.282004 0.128885
0.683897 0.291026 0.135686
0.775956 0.300028 0.142284
0.077669 0.339386 0.109980
0.168941 0.348456 0.117319
0.260430 0.357508 0.124454
0.352135 0.366541 0.131385
0.444057 0.375555 0.138112
0.536195 0.384551 0.144635
0.628549 0.393528 0.150954
0.721119 0.402487 0.157070
0.813905 0.411427 0.162981
0.112246 0.451075 0.133857
0.204246 0.460082 0.140510
0.296462 0.469071 0.146959
0.388895 0.478042 0.153204
0.481544 0.486994 0.159245
0.574409 0.495928 0.165082
0.667491 0.504843 0.170716
0.760789 0.513739 0.176145
0.854303 0.522617 0.181371
0.149270 0.562553 0.155427
0.241998 0.571499 0.161394
0.334942 0.580425 0.167157
0.428102 0.589334 0.172716
0.521479 0.598223 0.178071
0.615071 0.607094 0.183222
0.708881 0.615947 0.188170
0.802906 0.624781 0.192913
0.897148 0.633596 0.197452
0.188742 0.673822 0.174689
0.282197 0.682705 0.179970
0.375869 0.691569 0.185047
0.469757 0.700415 0.189920
0.563861 0.709243 0.194589
0.658181 0.718051 0.199054
0.752718 0.726841 0.203315
0.847471 0.735613 0.207373
0.942440 0.744366 0.211226
0.230661 0.784881 0.191643
0.324844 0.793702 0.196238
0.419244 0.802504 0.200629
0.513859 0.811287 0.204816
0.608691 0.820052 0.208799
0.703739 0.828798 0.212578
0.799003 0.837526 0.216154
0.894484 0.846236 0.219525
0.990181 0.854926 0.222692
0.275029 0.895730 0.206290
0.369939 0.904488 0.210199
0.465066 0.913228 0.213904
0.560409 0.921949 0.217405
0.655968 0.930652 0.220702
0.751744 0.939336 0.223795
0.847736 0.948001 0.226684
0.943722 0.956657 0.229572
1.000000 0.965494 0.236547
0.000000 0.006596 0.105661
0.083595 0.015711 0.115707
0.171821 0.024826 0.125752
0.260047 0.033941 0.135798
0.349214 0.043100 0.145051
0.439242 0.052277 0.153563
0.529487 0.061435 0.161871
0.619948 0.070575 0.169976
0.710625 0.079696 0.177876
0.018837 0.118510 0.139455
0.108635 0.127693 0.148174
0.198742 0.136863 0.156612
0.289065 0.146015 0.164845
0.379605 0.155147 0.172875
0.470361 0.164262 0.180701
0.561333 0.173357 0.188323
0.652522 0.182435 0.195741
0.743927 0.191493 0.202956
0.048672 0.230592 0.167792
0.139291 0.239718 0.175748
0.230125 0.248825 0.183500
0.321176 0.257914 0.191048
0.412444 0.266985 0.198391
0.503927 0.276037 0.205531
0.595627 0.285070 0.212467
0.687543 0.294085 0.219200
0.779676 0.303081 0.225728
0.081048 0.342469 0.193745
0.172394 0.351532 0.201015
0.263957 0.360578 0.208080
0.355735 0.369604 0.214942
0.447730 0.378612 0.221600
0.539941 0.387602 0.228054
0.632369 0.396573 0.234304
0.725013 0.405525 0.240350
0.817873 0.414459 0.246192
0.115872 0.454136 0.217390
0.207946 0.463137 0.223973
0.300236 0.472120 0.230353
0.392742 0.481084 0.236529
0.485464 0.490030 0.242500
0.578403 0.498957 0.248268
0.671558 0.507866 0.253832
0.764929 0.516756 0.259193
0.858517 0.525628 0.264349
0.153143 0.565593 0.238726
0.245945 0.574532 0.244624
0.338962 0.583453 0.250318
0.432196 0.592355 0.255807
0.525646 0.601238 0.261093
0.619312 0.610103 0.266175
0.713195 0.618949 0.271053
0.807294 0.627777 0.275727
0.901609 0.636586 0.280197
0.192863 0.676841 0.257755
0.286391 0.685717 0.262967
0.380136 0.694576 0.267975
0.474098 0.703415 0.272778
0.568275 0.712236 0.277378
0.662669 0.721039 0.281774
0.757280 0.729822 0.285966
0.852106 0.738588 0.289954
0.947149 0.747335 0.293738
0.235029 0.787879 0.274477
0.329286 0.796693 0.279002
0.423758 0.805489 0.283324
0.518447 0.814266 0.287442
0.613352 0.823024 0.291356
0.708474 0.831765 0.295065
0.803812 0.840486 0.298571
0.899366 0.849189 0.301873
0.995136 0.857874 0.304972
0.279644 0.898707 0.288890
0.374628 0.907459 0.292730
0.469828 0.916192 0.296365
0.565244 0.924907 0.299797
0.660877 0.933603 0.303025
0.756726 0.942281 0.306049
0.852792 0.950940 0.308869
0.947196 0.959658 0.313191
1.000000 0.968494 0.320167
0.000000 0.009691 0.190323
0.085964 0.018806 0.200368
0.174190 0.027922 0.210414
0.262416 0.037037 0.220459
0.352171 0.046219 0.229215
0.442273 0.055389 0.237658
0.532591 0.064541 0.245896
0.623125 0.073674 0.253931
0.713876 0.082789 0.261762
0.021654 0.121627 0.223740
0.111618 0.130810 0.232312
0.201799 0.139973 0.240681
0.292196 0.149118 0.248845
0.382809 0.158245 0.256806
0.473638 0.167353 0.264563
0.564684 0.176442 0.272115
0.655946 0.185513 0.279464
0.747424 0.194566 0.286609
0.051830 0.233693 0.251767
0.142522 0.242813 0.259653
0.233430 0.251914 0.267336
0.324554 0.260997 0.274814
0.415895 0.270061 0.282089
0.507452 0.279107 0.289160
0.599225 0.288134 0.296027
0.691215 0.297142 0.302689
0.783421 0.306132 0.309148
0.084453 0.345549 0.277487
0.175872 0.354606 0.284687
0.267508 0.363645 0.291683
0.359360 0.372665 0.298476
0.451428 0.381667 0.305065
0.543713 0.390651 0.311449
0.636214 0.399615 0.317630
0.728931 0.408561 0.323607
0.821865 0.417489 0.329380
0.119524 0.457195 0.300898
0.211671 0.466190 0.307413
0.304034 0.475166 0.313723
0.396614 0.484124 0.319830
0.489410 0.493064 0.325732
0.582422 0.501985 0.331431
0.675650 0.510887 0.336926
0.769095 0.519771 0.342216
0.862756 0.528636 0.347303
0.157042 0.568631 0.322002
0.249917 0.577564 0.327830
0.343008 0.586478 0.333455
0.436315 0.595373 0.338875
0.529838 0.604251 0.344092
0.623578 0.613109 0.349105
0.717534 0.621949 0.353913
0.811707 0.630771 0.358518
0.906095 0.639573 0.362919
0.197008 0.679857 0.340798
0.290610 0.688728 0.345941
0.384429 0.697580 0.350879
0.478464 0.706413 0.355613
0.572715 0.715228 0.360144
0.667182 0.724024 0.364471
0.761866 0.732801 0.368593
0.856766 0.741560 0.372512
0.951882 0.750301 0.376227
0.239422 0.790874 0.357287
0.333752 0.799682 0.361743
0.428298 0.808471 0.365995
0.523060 0.817242 0.370044
0.618039 0.825995 0.373888
0.713234 0.834728 0.377529
0.808645 0.843444 0.380966
0.904273 0.852140 0.384198
1.000000 0.860819 0.387227
0.284283 0.901681 0.371467
0.379341 0.910426 0.375237
0.474615 0.919154 0.378804
0.570105 0.927862 0.382166
0.665811 0.936552 0.385325
0.761733 0.945223 0.388279
0.857872 0.953876 0.391030
0.950671 0.962659 0.396810
1.000000 0.971495 0.403786
0.000107 0.012787 0.274984
0.088333 0.021902 0.285030
0.176559 0.031017 0.295075
0.265194 0.040153 0.304778
0.355153 0.049335 0.313355
0.445328 0.058499 0.321728
0.535720 0.067645 0.329898
0.626327 0.076772 0.337864
0.717152 0.085880 0.345625
0.024589 0.124748 0.307924
0.114627 0.133924 0.316427
0.204881 0.143081 0.324726
0.295351 0.152220 0.332822
0.386038 0.161340 0.340713
0.476941 0.170442 0.348400
0.568060 0.179525 0.355884
0.659395 0.188589 0.363164
0.750947 0.197636 0.370239
0.055012 0.236792 0.335718
0.145777 0.245906 0.343535
0.236759 0.255001 0.351149
0.327957 0.264077 0.358558
0.419371 0.273135 0.365763
0.511001 0.282174 0.372765
0.602848 0.291195 0.379562
0.694911 0.300197 0.386156
0.787191 0.309181 0.392546
0.087882 0.348627 0.361205
0.179375 0.357678 0.368336
0.271084 0.366711 0.375263
0.363010 0.375725 0.381986
0.455152 0.384720 0.388506
0.547510 0.393697 0.394821
0.640084 0.402656 0.400933
0.732875 0.411595 0.406840
0.825881 0.420517 0.412544
0.123200 0.460252 0.384383
0.215421 0.469240 0.390829
0.307857 0.478211 0.397070
0.400510 0.487162 0.403107
0.493380 0.496095 0.408940
0.586465 0.505010 0.414570
0.679767 0.513906 0.419995
0.773286 0.522784 0.425217
0.867020 0.531643 0.430235
0.160966 0.571667 0.405254
0.253914 0.580593 0.411013
0.347078 0.589501 0.416569
0.440459 0.598390 0.421920
0.534056 0.607261 0.427067
0.627869 0.616113 0.432011
0.721898 0.624947 0.436750
0.816144 0.633762 0.441286
0.910606 0.642559 0.445617
0.201179 0.682872 0.423817
0.294855 0.691736 0.428891
0.388747 0.700581 0.433760
0.482855 0.709408 0.438425
0.577179 0.718217 0.442886
0.671720 0.727007 0.447144
0.766477 0.735778 0.451197
0.861451 0.744531 0.455047
0.956640 0.753265 0.458692
0.243840 0.793867 0.440073
0.338243 0.802669 0.444460
0.432863 0.811452 0.448643
0.527698 0.820217 0.452622
0.622751 0.828963 0.456398
0.718019 0.837690 0.459969
0.813504 0.846399 0.463336
0.909205 0.855090 0.466500
1.000000 0.863762 0.469460
0.288948 0.904653 0.454020
0.384079 0.913392 0.457721
0.479426 0.922113 0.461219
0.574990 0.930815 0.464512
0.670769 0.939499 0.467601
0.766765 0.948164 0.470486
0.862664 0.956824 0.473453
0.954145 0.965660 0.480429
1.000000 0.974496 0.487405
0.002476 0.015882 0.359646
0.090702 0.024998 0.369691
0.178928 0.034113 0.379737
0.268127 0.043273 0.388963
0.358160 0.052449 0.397471
0.448408 0.061607 0.405776
0.538873 0.070746 0.413876
0.629555 0.079867 0.421772
0.720452 0.088969 0.429465
0.027549 0.127866 0.392084
0.117661 0.137036 0.400518
0.207988 0.146187 0.408748
0.298532 0.155319 0.416774
0.389292 0.164433 0.424597
0.480268 0.173528 0.432215
0.571461 0.182605 0.439629
0.662870 0.191664 0.446839
0.754495 0.200703 0.453846
0.058219 0.239889 0.419646
0.149058 0.248996 0.427394
0.240113 0.258085 0.434938
0.331384 0.267155 0.442278
0.422872 0.276207 0.449414
0.514576 0.285240 0.456346
0.606496 0.294254 0.463074
0.698633 0.303250 0.469599
0.790985 0.312228 0.475919
0.091336 0.351703 0.444899
0.182903 0.360748 0.451961
0.274685 0.369774 0.458819
0.366684 0.378782 0.465473
0.458900 0.387771 0.471923
0.551331 0.396741 0.478170
0.643979 0.405694 0.484212
0.736843 0.414627 0.490050
0.829923 0.423542 0.495685
0.126901 0.463306 0.467845
0.219195 0.472289 0.474221
0.311706 0.481253 0.480393
0.404432 0.490198 0.486361
0.497375 0.499125 0.492125
0.590534 0.508033 0.497685
0.683909 0.516923 0.503041
0.777501 0.525794 0.508194
0.871309 0.534647 0.513142
0.164914 0.574700 0.488483
0.257936 0.583620 0.494173
0.351173 0.592522 0.499659
0.444628 0.601405 0.504941
0.538298 0.610269 0.510019
0.632185 0.619115 0.514893
0.726288 0.627943 0.519563
0.820607 0.636752 0.524030
0.915142 0.645542 0.528292
0.205374 0.685884 0.506813
0.299124 0.694742 0.511817
0.393089 0.703581 0.516617
0.487271 0.712402 0.521213
0.581669 0.721204 0.525605
0.676283 0.729988 0.529793
0.771114 0.738753 0.533777
0.866160 0.747499 0.537558
0.961424 0.756227 0.541134
0.248282 0.796859 0.522836
0.342759 0.805654 0.527153
0.437452 0.814431 0.531267
0.532361 0.823189 0.535177
0.627487 0.831929 0.538883
0.722829 0.840650 0.542385
0.818387 0.849353 0.545684
0.914162 0.858037 0.548778
1.000000 0.866702 0.551668
0.293638 0.907623 0.536550
0.388842 0.916356 0.540182
0.484263 0.925070 0.543610
0.579900 0.933766 0.546834
0.675753 0.942444 0.549854
0.771822 0.951103 0.552670
0.866139 0.959824 0.557072
0.957620 0.968661 0.564048
1.000000 0.977497 0.571024
0.004845 0.018978 0.444307
0.093071 0.028093 0.454353
0.181297 0.037208 0.464398
0.271085 0.046392 0.473126
0.361191 0.055562 0.481565
0.451513 0.064713 0.489799
0.542052 0.073846 0.497831
0.632807 0.082960 0.505658
0.723778 0.092056 0.513281
0.030534 0.130982 0.476222
0.120719 0.140145 0.484586
0.211120 0.149290 0.492747
0.301737 0.158416 0.500704
0.392571 0.167524 0.508457
0.483621 0.176613 0.516006
0.574887 0.185684 0.523351
0.666369 0.194736 0.530492
0.758068 0.203769 0.537429
0.061451 0.242984 0.503550
0.152363 0.252085 0.511229
0.243492 0.261167 0.518703
0.334837 0.270231 0.525974
0.426398 0.279277 0.533041
0.518175 0.288303 0.539904
0.610169 0.297312 0.546563
0.702379 0.306301 0.553018
0.794805 0.315272 0.559269
0.094816 0.354776 0.528570
0.186455 0.363815 0.535563
0.278312 0.372835 0.542352
0.370384 0.381836 0.548937
0.462673 0.390819 0.555317
0.555178 0.399784 0.561494
0.647899 0.408730 0.567467
0.740836 0.417657 0.573236
0.833990 0.426566 0.578802
0.130628 0.466359 0.551283
0.222995 0.475335 0.557590
0.315579 0.484293 0.563693
0.408379 0.493232 0.569591
0.501395 0.502152 0.575286
0.594628 0.511054 0.580777
0.688077 0.519938 0.586064
0.781742 0.528803 0.591147
0.875623 0.537649 0.596026
0.168888 0.577732 0.571688
0.261983 0.586645 0.577309
0.355294 0.595541 0.582725
0.448821 0.604417 0.587938
0.542565 0.613276 0.592947
0.636525 0.622115 0.597752
0.730702 0.630936 0.602353
0.825095 0.639739 0.606750
0.919704 0.648523 0.610943
0.209595 0.688894 0.589785
0.303418 0.697746 0.594720
0.397456 0.706579 0.599451
0.491712 0.715393 0.603977
0.586183 0.724189 0.608300
0.680871 0.732966 0.612419
0.775775 0.741725 0.616334
0.870895 0.750465 0.620045
0.966232 0.759187 0.623552
0.252750 0.799848 0.605575
0.347300 0.808637 0.609823
0.442067 0.817407 0.613868
0.537049 0.826159 0.617709
0.632248 0.834893 0.621345
0.727664 0.843608 0.624778
0.823295 0.852304 0.628007
0.919143 0.860982 0.631032
1.000000 0.869641 0.633853
0.298353 0.910591 0.619056
0.393630 0.919318 0.622619
0.489125 0.928026 0.625978
0.584835 0.936715 0.629132
0.680762 0.945386 0.632083
0.776904 0.954039 0.634830
0.869613 0.962825 0.640691
0.961095 0.971661 0.647667
1.000000 0.980498 0.654643
0.007214 0.022073 0.528969
0.095440 0.031189 0.539014
0.184106 0.040326 0.548691
0.274069 0.049508 0.557264
0.364248 0.058672 0.565634
0.454644 0.067817 0.573800
0.545256 0.076943 0.581762
0.636084 0.086051 0.589519
0.727128 0.095141 0.597073
0.033544 0.134096 0.560335
0.123803 0.143253 0.568630
0.214277 0.152392 0.576722
0.304968 0.161511 0.584610
0.395875 0.170613 0.592293
0.486998 0.179696 0.599773
0.578337 0.188760 0.607049
0.669893 0.197806 0.614120
0.761665 0.206833 0.620988
0.064708 0.246077 0.587430
0.155694 0.255172 0.595040
0.246896 0.264248 0.602445
0.338314 0.273305 0.609647
0.429949 0.282344 0.616644
0.521800 0.291365 0.623438
0.613867 0.300367 0.630028
0.706150 0.309350 0.636414
0.798650 0.318315 0.642596
0.098320 0.357848 0.612218
0.190033 0.366880 0.619141
0.281963 0.375894 0.625861
0.374109 0.384889 0.632376
0.466471 0.393866 0.638688
0.559049 0.402824 0.644796
0.651844 0.411763 0.650699
0.744855 0.420684 0.656399
0.838082 0.429587 0.661895
0.134379 0.469409 0.634698
0.226820 0.478379 0.640935
0.319477 0.487331 0.646969
0.412350 0.496263 0.652798
0.505440 0.505178 0.658424
0.598746 0.514073 0.663845
0.692269 0.522951 0.669063
0.786007 0.531809 0.674077
0.879962 0.540649 0.678887
0.172886 0.580761 0.654870
0.266054 0.589668 0.660421
0.359439 0.598557 0.665769
0.453040 0.607428 0.670912
0.546857 0.616280 0.675852
0.640891 0.625113 0.680587
0.735141 0.633928 0.685119
0.829607 0.642724 0.689447
0.924289 0.651502 0.693571
0.213840 0.691903 0.672734
0.307736 0.700748 0.677599
0.401849 0.709574 0.682261
0.496177 0.718382 0.686718
0.590722 0.727172 0.690972
0.685483 0.735943 0.695021
0.780461 0.744695 0.698867
0.875655 0.753429 0.702509
0.971065 0.762145 0.705947
0.257243 0.802834 0.688290
0.351866 0.811617 0.692470
0.446706 0.820381 0.696445
0.541762 0.829127 0.700217
0.637035 0.837854 0.703784
0.732524 0.846563 0.707148
0.828229 0.855253 0.710308
0.924150 0.863925 0.713263
1.000000 0.872578 0.716015
0.303092 0.913557 0.701539
0.398444 0.922277 0.705032
0.494011 0.930979 0.708322
0.589795 0.939662 0.711407
0.685795 0.948327 0.714289
0.781607 0.956990 0.717334
0.873088 0.965826 0.724310
0.964569 0.974662 0.731286
1.000000 0.983498 0.738262
0.009583 0.025169 0.613630
0.097809 0.034284 0.623675
0.187040 0.043446 0.632875
0.277077 0.052622 0.641380
0.367330 0.061779 0.649680
0.457799 0.070918 0.657776
0.548484 0.080039 0.665669
0.639386 0.089140 0.673358
0.730504 0.098224 0.680842
0.036579 0.137208 0.644425
0.126911 0.146359 0.652651
0.217459 0.155491 0.660673
0.308223 0.164604 0.668492
0.399203 0.173699 0.676106
0.490400 0.182776 0.683517
0.581813 0.191834 0.690723
0.673442 0.200873 0.697726
0.765288 0.209894 0.704524
0.067990 0.249168 0.671288
0.159050 0.258256 0.678828
0.250325 0.267326 0.686164
0.341817 0.276377 0.693296
0.433525 0.285410 0.700225
0.525449 0.294424 0.706949
0.617589 0.303419 0.713469
0.709946 0.312396 0.719786
0.802519 0.321355 0.725899
0.101849 0.360918 0.695842
0.193636 0.369944 0.702696
0.285639 0.378951 0.709346
0.377858 0.387940 0.715793
0.470294 0.396910 0.722035
0.562945 0.405862 0.728073
0.655814 0.414795 0.733908
0.748898 0.423710 0.739539
0.842199 0.432606 0.744965
0.138155 0.472458 0.718089
0.230670 0.481421 0.724257
0.323400 0.490366 0.730221
0.416347 0.499293 0.735981
0.509510 0.508201 0.741538
0.602890 0.517090 0.746890
0.696485 0.525961 0.752039
0.790297 0.534813 0.756983
0.884326 0.543647 0.761724
0.176909 0.583788 0.738028
0.270151 0.592689 0.743510
0.363609 0.601572 0.748788
0.457284 0.610436 0.753862
0.551175 0.619282 0.758733
0.645282 0.628109 0.763399
0.739605 0.636917 0.767862
0.834145 0.645707 0.772120
0.928900 0.654479 0.776175
0.218111 0.694908 0.755659
0.312080 0.703747 0.760455
0.406266 0.712568 0.765047
0.500668 0.721369 0.769436
0.595286 0.730153 0.773620
0.690121 0.738917 0.777600
0.785172 0.747663 0.781377
0.880439 0.756391 0.784949
0.975923 0.765100 0.788318
0.261760 0.805819 0.770983
0.356457 0.814596 0.775093
0.451371 0.823354 0.778999
0.546500 0.832093 0.782701
0.641846 0.840814 0.786199
0.737408 0.849516 0.789494
0.833187 0.858200 0.792584
0.929182 0.866865 0.795471
1.000000 0.875524 0.798413
0.307857 0.916520 0.783998
0.403282 0.925234 0.787422
0.498923 0.933930 0.790642
0.594780 0.942607 0.793659
0.690853 0.951265 0.796471
0.785081 0.959991 0.800953
0.876563 0.968827 0.807929
0.968044 0.977663 0.814905
1.000000 0.986499 0.821881
0.011952 0.028265 0.698292
0.100178 0.037380 0.708337
0.190000 0.046564 0.717036
0.280110 0.055734 0.725471
0.370436 0.064885 0.733702
0.460979 0.074018 0.741730
0.551738 0.083132 0.749553
0.642713 0.092227 0.757172
0.733904 0.101304 0.764588
0.039639 0.140318 0.728492
0.130044 0.149462 0.736649
0.220666 0.158588 0.744601
0.311503 0.167695 0.752351
0.402557 0.176784 0.759896
0.493827 0.185854 0.767237
0.585314 0.194906 0.774374
0.677016 0.203939 0.781307
0.768935 0.212954 0.788037
0.071297 0.252256 0.755121
0.162430 0.261338 0.762592
0.253779 0.270402 0.769859
0.345344 0.279447 0.776922
0.437125 0.288473 0.783781
0.529123 0.297481 0.790436
0.621337 0.306470 0.796887
0.713767 0.315441 0.803135
0.806414 0.324393 0.809178
0.105403 0.363985 0.779443
0.197263 0.373005 0.786228
0.289340 0.382006 0.792808
0.381632 0.390988 0.799186
0.474141 0.399952 0.805359
0.566867 0.408898 0.811328
0.659808 0.417825 0.817093
0.752966 0.426733 0.822654
0.846340 0.435623 0.828012
0.141956 0.475504 0.801457
0.234544 0.484461 0.807555
0.327348 0.493400 0.813450
0.420369 0.502320 0.819141
0.513605 0.511222 0.824628
0.607058 0.520105 0.829912
0.700727 0.528969 0.834991
0.794613 0.537815 0.839866
0.888715 0.546643 0.844537
0.180957 0.586813 0.821163
0.274273 0.595708 0.826575
0.367804 0.604584 0.831784
0.461552 0.613442 0.836789
0.555517 0.622281 0.841590
0.649697 0.631102 0.846188
0.744094 0.639904 0.850581
0.838707 0.648688 0.854770
0.933536 0.657453 0.858755
0.222406 0.697912 0.838561
0.316449 0.706745 0.843288
0.410708 0.715559 0.847811
0.505184 0.724354 0.852130
0.599876 0.733131 0.856245
0.694784 0.741890 0.860156
0.789908 0.750629 0.863863
0.885249 0.759351 0.867366
0.980806 0.768054 0.870666
0.266302 0.808802 0.853651
0.361073 0.817572 0.857692
0.456060 0.826324 0.861529
0.551263 0.835057 0.865162
0.646682 0.843771 0.868591
0.742318 0.852467 0.871816
0.838170 0.861145 0.874837
0.934238 0.869804 0.877655
1.000000 0.878524 0.882032
0.312646 0.919482 0.866434
0.408145 0.928189 0.869789
0.503859 0.936879 0.872940
0.599790 0.945549 0.875887
0.695937 0.954202 0.878630
0.788556 0.962991 0.884572
0.880037 0.971828 0.891548
0.971519 0.980664 0.898524
1.000000 0.989500 0.905500
