luts/Cinematic Teal & Orange.cube
# Cinematic Teal & Orange LUT
LUT_3D_SIZE 33
0.000000 0.003500 0.021000
0.015056 0.005779 0.023511
0.037113 0.008058 0.026023
0.059169 0.010336 0.028534
0.081226 0.012615 0.031045
0.103282 0.014894 0.033557
0.125339 0.017173 0.036068
0.147395 0.019452 0.038579
0.169452 0.021730 0.041091
0.191508 0.024009 0.043602
0.213565 0.026288 0.046113
0.235621 0.028567 0.048625
0.257678 0.030846 0.051136
0.279734 0.033124 0.053647
0.301791 0.035403 0.056159
0.323847 0.037682 0.058670
0.346282 0.039980 0.060864
0.368750 0.042277 0.063029
0.391232 0.044573 0.065180
0.413728 0.046869 0.067319
0.436237 0.049163 0.069445
0.458759 0.051455 0.071559
0.481295 0.053747 0.073660
0.503845 0.056038 0.075748
0.526408 0.058327 0.077823
0.548985 0.060615 0.079885
0.571575 0.062902 0.081935
0.594178 0.065188 0.083972
0.616796 0.067473 0.085996
0.639426 0.069756 0.088008
0.662070 0.072039 0.090006
0.684728 0.074320 0.091992
0.707399 0.076600 0.093966
0.000000 0.031479 0.029448
0.020923 0.033757 0.031960
0.042980 0.036036 0.034471
0.065036 0.038315 0.036982
0.087093 0.040594 0.039494
0.109149 0.042873 0.042005
0.131206 0.045151 0.044516
0.153262 0.047430 0.047028
0.175319 0.049709 0.049539
0.197375 0.051988 0.052050
0.219432 0.054267 0.054562
0.241488 0.056545 0.057073
0.263668 0.058831 0.059481
0.286128 0.061129 0.061654
0.308601 0.063426 0.063813
0.331088 0.065722 0.065961
0.353588 0.068016 0.068095
0.376102 0.070310 0.070216
0.398630 0.072602 0.072325
0.421171 0.074894 0.074421
0.443725 0.077184 0.076505
0.466293 0.079473 0.078575
0.488875 0.081760 0.080633
0.511470 0.084047 0.082678
0.534078 0.086333 0.084710
0.556700 0.088617 0.086730
0.579336 0.090900 0.088737
0.601985 0.093182 0.090731
0.624648 0.095463 0.092712
0.647324 0.097743 0.094681
0.670014 0.100021 0.096637
0.692717 0.102298 0.098580
0.715433 0.104575 0.100510
0.004734 0.059457 0.037897
0.026790 0.061736 0.040408
0.048847 0.064015 0.042919
0.070903 0.066294 0.045431
0.092960 0.068572 0.047942
0.115016 0.070851 0.050453
0.137073 0.073130 0.052965
0.159129 0.075409 0.055476
0.181186 0.077688 0.057987
0.203511 0.079980 0.060274
0.225975 0.082278 0.062441
0.248454 0.084574 0.064597
0.270946 0.086870 0.066739
0.293451 0.089164 0.068869
0.315970 0.091457 0.070986
0.338502 0.093749 0.073090
0.361048 0.096040 0.075181
0.383607 0.098330 0.077260
0.406180 0.100618 0.079326
0.428767 0.102906 0.081379
0.451367 0.105192 0.083419
0.473980 0.107477 0.085447
0.496607 0.109761 0.087462
0.519248 0.112043 0.089464
0.541902 0.114325 0.091454
0.564569 0.116605 0.093430
0.587250 0.118885 0.095394
0.609945 0.121163 0.097346
0.632653 0.123440 0.099284
0.655375 0.125716 0.101210
0.678110 0.127990 0.103123
0.700858 0.130264 0.105023
0.723621 0.132536 0.106911
0.010601 0.087436 0.046345
0.032657 0.089714 0.048856
0.054714 0.091993 0.051368
0.076770 0.094272 0.053879
0.098827 0.096551 0.056390
0.120899 0.098831 0.058888
0.143355 0.101129 0.061064
0.165825 0.103426 0.063228
0.188308 0.105723 0.065378
0.210805 0.108018 0.067516
0.233315 0.110312 0.069641
0.255839 0.112604 0.071753
0.278376 0.114896 0.073853
0.300927 0.117186 0.075939
0.323491 0.119476 0.078013
0.346069 0.121764 0.080075
0.368660 0.124051 0.082123
0.391265 0.126336 0.084159
0.413884 0.128621 0.086182
0.436516 0.130904 0.088192
0.459161 0.133187 0.090190
0.481820 0.135468 0.092175
0.504493 0.137748 0.094147
0.527178 0.140027 0.096106
0.549878 0.142304 0.098053
0.572591 0.144581 0.099987
0.595318 0.146856 0.101908
0.618058 0.149130 0.103816
0.640811 0.151403 0.105712
0.663578 0.153675 0.107595
0.686359 0.155946 0.109465
0.709153 0.158216 0.111322
0.731961 0.160484 0.113167
0.016467 0.115414 0.054793
0.038524 0.117693 0.057305
0.060740 0.119980 0.059682
0.083201 0.122278 0.061853
0.105676 0.124575 0.064012
0.128164 0.126871 0.066158
0.150666 0.129165 0.068291
0.173181 0.131459 0.070411
0.195710 0.133751 0.072519
0.218252 0.136042 0.074614
0.240808 0.138332 0.076696
0.263377 0.140621 0.078765
0.285960 0.142909 0.080822
0.308556 0.145195 0.082866
0.331166 0.147481 0.084897
0.353789 0.149765 0.086916
0.376426 0.152048 0.088921
0.399076 0.154330 0.090914
0.421740 0.156611 0.092894
0.444418 0.158890 0.094862
0.467108 0.161169 0.096816
0.489813 0.163446 0.098758
0.512531 0.165722 0.100688
0.535262 0.167997 0.102604
0.558007 0.170271 0.104508
0.580766 0.172543 0.106399
0.603538 0.174815 0.108277
0.626323 0.177085 0.110142
0.649122 0.179354 0.111995
0.671935 0.181622 0.113835
0.694761 0.183889 0.115662
0.717601 0.186155 0.117477
0.740454 0.188419 0.119279
0.023050 0.143427 0.062641
0.045529 0.145723 0.064795
0.068022 0.148019 0.066936
0.090529 0.150313 0.069064
0.113049 0.152606 0.071180
0.135582 0.154898 0.073283
0.158130 0.157189 0.075373
0.180690 0.159478 0.077451
0.203264 0.161767 0.079516
0.225852 0.164054 0.081568
0.248453 0.166340 0.083607
0.271068 0.168625 0.085633
0.293696 0.170909 0.087647
0.316338 0.173191 0.089648
0.338993 0.175473 0.091636
0.361662 0.177753 0.093612
0.384344 0.180032 0.095575
0.407040 0.182310 0.097525
0.429750 0.184587 0.099462
0.452472 0.186863 0.101387
0.475209 0.189137 0.103299
0.497959 0.191411 0.105198
0.520722 0.193683 0.107084
0.543499 0.195954 0.108958
0.566290 0.198224 0.110818
0.589093 0.200492 0.112666
0.611911 0.202760 0.114502
0.634742 0.205026 0.116324
0.657587 0.207292 0.118134
0.680445 0.209556 0.119931
0.703316 0.211819 0.121716
0.726201 0.214080 0.123487
0.749100 0.216341 0.125246
0.030393 0.171460 0.069836
0.052918 0.173753 0.071947
0.075457 0.176045 0.074046
0.098009 0.178335 0.076131
0.120575 0.180624 0.078204
0.143154 0.182912 0.080264
0.165746 0.185199 0.082312
0.188352 0.187485 0.084346
0.210972 0.189769 0.086368
0.233605 0.192052 0.088377
0.256252 0.194335 0.090374
0.278912 0.196616 0.092357
0.301586 0.198896 0.094328
0.324273 0.201174 0.096286
0.346974 0.203452 0.098232
0.369688 0.205728 0.100164
0.392416 0.208003 0.102084
0.415157 0.210278 0.103991
0.437912 0.212550 0.105886
0.460680 0.214822 0.107768
0.483462 0.217093 0.109636
0.506257 0.219362 0.111493
0.529066 0.221631 0.113336
0.551889 0.223898 0.115167
0.574725 0.226164 0.116985
0.597574 0.228429 0.118790
0.620437 0.230692 0.120582
0.643314 0.232955 0.122362
0.666204 0.235216 0.124129
0.689107 0.237476 0.125883
0.712024 0.239735 0.127625
0.734955 0.241993 0.129354
0.757899 0.244250 0.131070
0.037890 0.199481 0.076887
0.060461 0.201770 0.078956
0.083045 0.204057 0.081011
0.105642 0.206344 0.083054
0.128253 0.208629 0.085084
0.150878 0.210913 0.087101
0.173516 0.213196 0.089105
0.196167 0.215478 0.091097
0.218833 0.217758 0.093076
0.241511 0.220038 0.095042
0.264203 0.222316 0.096996
0.286909 0.224593 0.098937
0.309628 0.226869 0.100865
0.332361 0.229144 0.102780
0.355107 0.231418 0.104683
0.377867 0.233690 0.106572
0.400640 0.235962 0.108449
0.423427 0.238232 0.110314
0.446227 0.240501 0.112165
0.469041 0.242769 0.114004
0.491868 0.245035 0.115830
0.514709 0.247301 0.117643
0.537564 0.249565 0.119444
0.560432 0.251829 0.121232
0.583313 0.254091 0.123007
0.606208 0.256352 0.124769
0.629116 0.258611 0.126519
0.652038 0.260870 0.128256
0.674974 0.263127 0.129980
0.697923 0.265384 0.131691
0.720885 0.267639 0.133390
0.743861 0.269893 0.135076
0.766851 0.272146 0.136749
0.045540 0.227488 0.083794
0.068156 0.229773 0.085820
0.090785 0.232057 0.087832
0.113428 0.234339 0.089832
0.136085 0.236621 0.091819
0.158755 0.238901 0.093794
0.181439 0.241180 0.095755
0.204136 0.243458 0.097704
0.226846 0.245734 0.099640
0.249570 0.248010 0.101564
0.272308 0.250284 0.103474
0.295059 0.252558 0.105372
0.317824 0.254830 0.107257
0.340602 0.257101 0.109130
0.363394 0.259370 0.110989
0.386199 0.261639 0.112836
0.409018 0.263906 0.114670
0.431850 0.266173 0.116492
0.454696 0.268438 0.118300
0.477555 0.270702 0.120096
0.500428 0.272965 0.121880
0.523314 0.275226 0.123650
0.546214 0.277487 0.125408
0.569127 0.279746 0.127153
0.592054 0.282004 0.128885
0.614995 0.284261 0.130604
0.637948 0.286517 0.132311
0.660916 0.288772 0.134005
0.683897 0.291026 0.135686
0.706891 0.293278 0.137355
0.729899 0.295529 0.139010
0.752921 0.297779 0.140653
0.775956 0.300028 0.142284
0.053343 0.255482 0.090557
0.076004 0.257763 0.092539
0.098679 0.260043 0.094509
0.121368 0.262322 0.096466
0.144070 0.264599 0.098410
0.166785 0.266876 0.100342
0.189514 0.269151 0.102261
0.212257 0.271425 0.104167
0.235013 0.273697 0.106060
0.257782 0.275969 0.107940
0.280565 0.278240 0.109808
0.303362 0.280509 0.111663
0.326172 0.282777 0.113505
0.348996 0.285044 0.115335
0.371833 0.287310 0.117152
0.394684 0.289575 0.118956
0.417548 0.291838 0.120747
0.440426 0.294101 0.122526
0.463317 0.296362 0.124291
0.486222 0.298622 0.126044
0.509140 0.300881 0.127785
0.532072 0.303139 0.129512
0.555017 0.305395 0.131227
0.577976 0.307651 0.132929
0.600948 0.309905 0.134619
0.623934 0.312158 0.136295
0.646934 0.314410 0.137959
0.669946 0.316661 0.139610
0.692973 0.318911 0.141248
0.716013 0.321159 0.142874
0.739066 0.323406 0.144487
0.762133 0.325653 0.146087
0.785214 0.327898 0.147674
0.061298 0.283464 0.097175
0.084005 0.285741 0.099115
0.106726 0.288016 0.101042
0.129460 0.290291 0.102956
0.152207 0.292565 0.104857
0.174968 0.294837 0.106746
0.197743 0.297108 0.108622
0.220531 0.299378 0.110485
0.243332 0.301647 0.112335
0.266147 0.303915 0.114173
0.288976 0.306182 0.115998
0.311818 0.308447 0.117810
0.334674 0.310711 0.119609
0.357543 0.312975 0.121396
0.380425 0.315237 0.123170
0.403322 0.317497 0.124931
0.426231 0.319757 0.126680
0.449154 0.322016 0.128415
0.472091 0.324273 0.130138
0.495041 0.326529 0.131848
0.518005 0.328784 0.133546
0.540982 0.331038 0.135230
0.563973 0.333291 0.136902
0.586978 0.335542 0.138562
0.609995 0.337793 0.140208
0.633027 0.340042 0.141842
0.656072 0.342290 0.143463
0.679130 0.344537 0.145071
0.702202 0.346783 0.146666
0.725287 0.349027 0.148249
0.748386 0.351271 0.149819
0.771499 0.353513 0.151376
0.794625 0.355754 0.152921
0.069407 0.311432 0.103650
0.092160 0.313705 0.105546
0.114926 0.315977 0.107430
0.137705 0.318247 0.109302
0.160498 0.320517 0.111160
0.183304 0.322786 0.113006
0.206124 0.325053 0.114839
0.228958 0.327319 0.116659
0.251805 0.329584 0.118467
0.274665 0.331848 0.120261
0.297539 0.334111 0.122043
0.320427 0.336372 0.123813
0.343328 0.338633 0.125569
0.366243 0.340892 0.127313
0.389171 0.343150 0.129044
0.412112 0.345407 0.130762
0.435068 0.347663 0.132468
0.458036 0.349917 0.134161
0.481018 0.352171 0.135841
0.504014 0.354423 0.137508
0.527023 0.356674 0.139162
0.550046 0.358924 0.140804
0.573082 0.361173 0.142433
0.596132 0.363421 0.144050
0.619196 0.365667 0.145653
0.642272 0.367912 0.147244
0.665363 0.370157 0.148822
0.688467 0.372400 0.150387
0.711584 0.374641 0.151940
0.734715 0.376882 0.153480
0.757859 0.379122 0.155007
0.781017 0.381360 0.156521
0.804189 0.383597 0.158023
0.077669 0.339386 0.109980
0.100467 0.341656 0.111834
0.123278 0.343924 0.113675
0.146103 0.346191 0.115503
0.168941 0.348456 0.117319
0.191793 0.350721 0.119121
0.214659 0.352984 0.120912
0.237538 0.355247 0.122689
0.260430 0.357508 0.124454
0.283336 0.359768 0.126205
0.306256 0.362027 0.127945
0.329189 0.364284 0.129671
0.352135 0.366541 0.131385
0.375096 0.368796 0.133085
0.398069 0.371050 0.134774
0.421056 0.373303 0.136449
0.444057 0.375555 0.138112
0.467071 0.377806 0.139762
0.490099 0.380055 0.141399
0.513140 0.382304 0.143023
0.536195 0.384551 0.144635
0.559263 0.386797 0.146234
0.582345 0.389042 0.147820
0.605440 0.391286 0.149393
0.628549 0.393528 0.150954
0.651671 0.395770 0.152502
0.674807 0.398010 0.154037
0.697956 0.400249 0.155560
0.721119 0.402487 0.157070
0.744295 0.404724 0.158567
0.767485 0.406960 0.160051
0.790689 0.409194 0.161522
0.813905 0.411427 0.162981
0.086084 0.367328 0.116165
0.108927 0.369593 0.117976
0.131784 0.371858 0.119775
0.154654 0.374121 0.121560
0.177538 0.376383 0.123333
0.200435 0.378643 0.125093
0.223346 0.380903 0.126840
0.246271 0.383161 0.128575
0.269209 0.385418 0.130296
0.292160 0.387675 0.132005
0.315125 0.389929 0.133702
0.338104 0.392183 0.135385
0.361096 0.394436 0.137056
0.384101 0.396687 0.138714
0.407120 0.398937 0.140359
0.430153 0.401187 0.141992
0.453199 0.403435 0.143611
0.476259 0.405681 0.145219
0.499332 0.407927 0.146813
0.522419 0.410172 0.148394
0.545519 0.412415 0.149963
0.568632 0.414657 0.151519
0.591760 0.416898 0.153063
0.614900 0.419138 0.154593
0.638055 0.421377 0.156111
0.661222 0.423614 0.157616
0.684404 0.425850 0.159108
0.707599 0.428086 0.160588
0.730807 0.430320 0.162055
0.754029 0.432553 0.163509
0.777264 0.434784 0.164950
0.800513 0.437015 0.166379
0.823775 0.439244 0.167795
0.094651 0.395257 0.122207
0.117540 0.397518 0.123975
0.140442 0.399779 0.125730
0.163358 0.402038 0.127473
0.186288 0.404296 0.129203
0.209231 0.406552 0.130920
0.232187 0.408808 0.132624
0.255157 0.411063 0.134316
0.278140 0.413316 0.135995
0.301137 0.415568 0.137661
0.324148 0.417819 0.139314
0.347172 0.420069 0.140955
0.370209 0.422318 0.142583
0.393260 0.424565 0.144198
0.416325 0.426812 0.145800
0.439403 0.429057 0.147390
0.462494 0.431301 0.148967
0.485600 0.433544 0.150531
0.508718 0.435786 0.152083
0.531850 0.438026 0.153621
0.554996 0.440266 0.155147
0.578155 0.442504 0.156660
0.601328 0.444741 0.158161
0.624514 0.446977 0.159648
0.647714 0.449212 0.161123
0.670927 0.451445 0.162586
0.694154 0.453678 0.164035
0.717394 0.455909 0.165472
0.740648 0.458139 0.166896
0.763915 0.460368 0.168307
0.787196 0.462596 0.169705
0.810490 0.464823 0.171091
0.833798 0.467048 0.172464
0.103372 0.423172 0.128104
0.126306 0.425430 0.129829
0.149254 0.427686 0.131542
0.172215 0.429941 0.133242
0.195190 0.432196 0.134929
0.218179 0.434448 0.136603
0.241180 0.436700 0.138264
0.264196 0.438951 0.139913
0.287225 0.441200 0.141549
0.310267 0.443449 0.143172
0.333323 0.445696 0.144783
0.356393 0.447942 0.146381
0.379476 0.450186 0.147966
0.402572 0.452430 0.149538
0.425682 0.454673 0.151097
0.448806 0.456914 0.152644
0.471943 0.459154 0.154178
0.495093 0.461393 0.155700
0.518257 0.463631 0.157208
0.541435 0.465868 0.158704
0.564626 0.468103 0.160187
0.587831 0.470337 0.161657
0.611049 0.472571 0.163115
0.634281 0.474803 0.164560
0.657526 0.477034 0.165992
0.680784 0.479263 0.167411
0.704057 0.481492 0.168818
0.727342 0.483719 0.170211
0.750642 0.485946 0.171593
0.773955 0.488171 0.172961
0.797281 0.490395 0.174317
0.820621 0.492617 0.175659
0.843974 0.494839 0.176989
0.112246 0.451075 0.133857
0.135225 0.453328 0.135540
0.158219 0.455581 0.137209
0.181225 0.457832 0.138866
0.204246 0.460082 0.140510
0.227280 0.462331 0.142142
0.250327 0.464579 0.143760
0.273388 0.466826 0.145366
0.296462 0.469071 0.146959
0.319550 0.471316 0.148540
0.342651 0.473559 0.150107
0.365766 0.475801 0.151662
0.388895 0.478042 0.153204
0.412037 0.480282 0.154734
0.435192 0.482520 0.156250
0.458361 0.484758 0.157754
0.481544 0.486994 0.159245
0.504740 0.489229 0.160724
0.527950 0.491463 0.162189
0.551173 0.493696 0.163642
0.574409 0.495928 0.165082
0.597659 0.498158 0.166510
0.620923 0.500387 0.167925
0.644200 0.502616 0.169327
0.667491 0.504843 0.170716
0.690795 0.507068 0.172092
0.714113 0.509293 0.173456
0.737444 0.511517 0.174807
0.760789 0.513739 0.176145
0.784147 0.515960 0.177471
0.807519 0.518180 0.178783
0.830904 0.520399 0.180083
0.854303 0.522617 0.181371
0.121272 0.478964 0.139466
0.144297 0.481214 0.141106
0.167336 0.483462 0.142732
0.190388 0.485710 0.144346
0.213454 0.487956 0.145947
0.236534 0.490201 0.147536
0.259626 0.492445 0.149112
0.282733 0.494688 0.150675
0.305853 0.496930 0.152225
0.328986 0.499170 0.153762
0.352133 0.501409 0.155287
0.375293 0.503648 0.156799
0.398467 0.505885 0.158298
0.421655 0.508120 0.159785
0.444856 0.510355 0.161259
0.468070 0.512589 0.162720
0.491298 0.514821 0.164168
0.514540 0.517052 0.165604
0.537795 0.519282 0.167026
0.561063 0.521511 0.168436
0.584345 0.523739 0.169834
0.607641 0.525966 0.171218
0.630950 0.528191 0.172590
0.654273 0.530415 0.173949
0.677609 0.532638 0.175296
0.700958 0.534860 0.176629
0.724322 0.537081 0.177950
0.747698 0.539301 0.179258
0.771089 0.541519 0.180553
0.794492 0.543736 0.181836
0.817910 0.545953 0.183106
0.841340 0.548168 0.184363
0.864785 0.550381 0.185607
0.130452 0.506840 0.144931
0.153522 0.509086 0.146527
0.176607 0.511331 0.148111
0.199704 0.513574 0.149682
0.222816 0.515817 0.151241
0.245940 0.518058 0.152786
0.269079 0.520298 0.154319
0.292231 0.522537 0.155839
0.315396 0.524775 0.157347
0.338575 0.527011 0.158841
0.361767 0.529247 0.160323
0.384973 0.531481 0.161792
0.408192 0.533714 0.163249
0.431425 0.535946 0.164692
0.454672 0.538177 0.166123
0.477932 0.540406 0.167541
0.501205 0.542635 0.168947
0.524492 0.544862 0.170339
0.547793 0.547088 0.171719
0.571107 0.549313 0.173086
0.594434 0.551537 0.174441
0.617775 0.553760 0.175783
0.641130 0.555981 0.177111
0.664498 0.558202 0.178428
0.687880 0.560421 0.179731
0.711275 0.562639 0.181022
0.734684 0.564856 0.182300
0.758106 0.567072 0.183565
0.781541 0.569286 0.184817
0.804991 0.571500 0.186057
0.828453 0.573712 0.187284
0.851930 0.575923 0.188498
0.875419 0.578133 0.189700
0.139784 0.534703 0.150251
0.162900 0.536945 0.151805
0.186030 0.539186 0.153346
0.209173 0.541426 0.154874
0.232330 0.543664 0.156389
0.255500 0.545902 0.157892
0.278684 0.548138 0.159382
0.301881 0.550373 0.160859
0.325092 0.552607 0.162324
0.348317 0.554839 0.163776
0.371554 0.557071 0.165215
0.394806 0.559301 0.166641
0.418071 0.561530 0.168054
0.441349 0.563758 0.169455
0.464641 0.565985 0.170843
0.487946 0.568211 0.172218
0.511265 0.570436 0.173581
0.534598 0.572659 0.174931
0.557944 0.574881 0.176268
0.581303 0.577102 0.177592
0.604676 0.579322 0.178904
0.628063 0.581541 0.180202
0.651463 0.583759 0.181489
0.674877 0.585975 0.182762
0.698304 0.588190 0.184022
0.721744 0.590405 0.185270
0.745198 0.592618 0.186505
0.768666 0.594829 0.187728
0.792147 0.597040 0.188937
0.815642 0.599250 0.190134
0.839150 0.601458 0.191318
0.862672 0.603665 0.192490
0.886207 0.605871 0.193648
0.149270 0.562553 0.155427
0.172431 0.564791 0.156938
0.195607 0.567028 0.158436
0.218795 0.569264 0.159921
0.241998 0.571499 0.161394
0.265213 0.573732 0.162854
0.288443 0.575964 0.164301
0.311685 0.578195 0.165735
0.334942 0.580425 0.167157
0.358211 0.582654 0.168566
0.381495 0.584882 0.169962
0.404792 0.587108 0.171345
0.428102 0.589334 0.172716
0.451426 0.591558 0.174074
0.474763 0.593781 0.175419
0.498114 0.596003 0.176751
0.521479 0.598223 0.178071
0.544856 0.600443 0.179378
0.568248 0.602661 0.180672
0.591653 0.604878 0.181954
0.615071 0.607094 0.183222
0.638503 0.609309 0.184478
0.661949 0.611523 0.185721
0.685408 0.613735 0.186952
0.708881 0.615947 0.188170
0.732367 0.618157 0.189374
0.755866 0.620366 0.190567
0.779379 0.622574 0.191746
0.802906 0.624781 0.192913
0.826446 0.626987 0.194067
0.850000 0.629191 0.195208
0.873567 0.631394 0.196336
0.897148 0.633596 0.197452
0.158908 0.590390 0.160459
0.182115 0.592624 0.161927
0.205336 0.594857 0.163382
0.228570 0.597089 0.164825
0.251818 0.599320 0.166254
0.275079 0.601549 0.167671
0.298354 0.603778 0.169076
0.321642 0.606005 0.170467
0.344944 0.608231 0.171846
0.368259 0.610456 0.173212
0.391588 0.612680 0.174565
0.414930 0.614902 0.175906
0.438286 0.617124 0.177233
0.461655 0.619344 0.178548
0.485038 0.621563 0.179851
0.508435 0.623781 0.181140
0.531845 0.625998 0.182417
0.555268 0.628213 0.183681
0.578705 0.630428 0.184932
0.602155 0.632641 0.186171
0.625619 0.634853 0.187397
0.649097 0.637064 0.188610
0.672588 0.639274 0.189810
0.696092 0.641483 0.190998
0.719611 0.643690 0.192172
0.743142 0.645897 0.193334
0.766687 0.648102 0.194484
0.790246 0.650306 0.195620
0.813818 0.652509 0.196744
0.837403 0.654710 0.197855
0.861003 0.656911 0.198954
0.884615 0.659110 0.200039
0.908241 0.661309 0.201112
0.168700 0.618214 0.165347
0.191952 0.620444 0.166772
0.215219 0.622673 0.168184
0.238498 0.624901 0.169584
0.261791 0.627128 0.170970
0.285098 0.629354 0.172345
0.308418 0.631578 0.173706
0.331752 0.633801 0.175055
0.355099 0.636024 0.176390
0.378460 0.638245 0.177714
0.401834 0.640464 0.179024
0.425222 0.642683 0.180322
0.448623 0.644901 0.181606
0.472038 0.647117 0.182879
0.495467 0.649332 0.184138
0.518908 0.651546 0.185385
0.542364 0.653759 0.186619
0.565833 0.655971 0.187840
0.589315 0.658181 0.189048
0.612811 0.660391 0.190244
0.636320 0.662599 0.191427
0.659843 0.664806 0.192597
0.683380 0.667012 0.193754
0.706930 0.669217 0.194899
0.730493 0.671420 0.196031
0.754070 0.673623 0.197150
0.777661 0.675824 0.198257
0.801265 0.678024 0.199350
0.824883 0.680223 0.200431
0.848514 0.682421 0.201499
0.872158 0.684618 0.202555
0.895817 0.686813 0.203598
0.919488 0.689008 0.204628
0.178644 0.646025 0.170090
0.201942 0.648251 0.171472
0.225254 0.650476 0.172842
0.248579 0.652700 0.174198
0.271918 0.654923 0.175542
0.295270 0.657145 0.176874
0.318636 0.659365 0.178192
0.342015 0.661585 0.179498
0.365407 0.663803 0.180791
0.388814 0.666020 0.182071
0.412233 0.668236 0.183339
0.435667 0.670451 0.184593
0.459114 0.672664 0.185835
0.482574 0.674877 0.187065
0.506048 0.677088 0.188281
0.529535 0.679298 0.189485
0.553036 0.681507 0.190676
0.576550 0.683715 0.191854
0.600078 0.685922 0.193020
0.623619 0.688127 0.194173
0.647174 0.690332 0.195313
0.670743 0.692535 0.196440
0.694325 0.694737 0.197554
0.717920 0.696938 0.198656
0.741529 0.699138 0.199745
0.765152 0.701336 0.200822
0.788788 0.703533 0.201885
0.812437 0.705730 0.202936
0.836100 0.707925 0.203974
0.859777 0.710119 0.204999
0.883467 0.712311 0.206012
0.907171 0.714503 0.207012
0.930888 0.716694 0.207999
0.188742 0.673822 0.174689
0.212085 0.676045 0.176029
0.235442 0.678266 0.177355
0.258813 0.680486 0.178669
0.282197 0.682705 0.179970
0.305595 0.684923 0.181258
0.329006 0.687140 0.182534
0.352431 0.689355 0.183797
0.375869 0.691569 0.185047
0.399320 0.693783 0.186284
0.422786 0.695995 0.187509
0.446264 0.698205 0.188721
0.469757 0.700415 0.189920
0.493262 0.702624 0.191106
0.516782 0.704831 0.192280
0.540315 0.707037 0.193441
0.563861 0.709243 0.194589
0.587421 0.711446 0.195724
0.610994 0.713649 0.196847
0.634581 0.715851 0.197957
0.658181 0.718051 0.199054
0.681795 0.720251 0.200139
0.705423 0.722449 0.201210
0.729064 0.724646 0.202269
0.752718 0.726841 0.203315
0.776386 0.729036 0.204349
0.800068 0.731230 0.205370
0.823763 0.733422 0.206378
0.847471 0.735613 0.207373
0.871193 0.737803 0.208355
0.894929 0.739992 0.209325
0.918678 0.742180 0.210282
0.942440 0.744366 0.211226
0.198992 0.701606 0.179144
0.222381 0.703825 0.180441
0.245784 0.706042 0.181724
0.269200 0.708259 0.182995
0.292629 0.710474 0.184253
0.316073 0.712688 0.185499
0.339529 0.714901 0.186732
0.362999 0.717112 0.187952
0.386483 0.719323 0.189159
0.409980 0.721532 0.190353
0.433491 0.723740 0.191535
0.457015 0.725947 0.192704
0.480553 0.728153 0.193860
0.504104 0.730358 0.195004
0.527669 0.732561 0.196135
0.551247 0.734763 0.197253
0.574839 0.736965 0.198358
0.598444 0.739165 0.199451
0.622063 0.741363 0.200530
0.645695 0.743561 0.201597
0.669341 0.745758 0.202652
0.693001 0.747953 0.203693
0.716674 0.750147 0.204722
0.740360 0.752340 0.205738
0.764060 0.754532 0.206741
0.787773 0.756723 0.207732
0.811500 0.758913 0.208710
0.835241 0.761101 0.209675
0.858995 0.763288 0.210627
0.882762 0.765475 0.211567
0.906543 0.767660 0.212494
0.930338 0.769843 0.213408
0.954146 0.772026 0.214309
0.209396 0.729378 0.183455
0.232830 0.731592 0.184708
0.256278 0.733806 0.185949
0.279740 0.736018 0.187177
0.303215 0.738230 0.188393
0.326703 0.740440 0.189595
0.350205 0.742648 0.190785
0.373721 0.744856 0.191962
0.397250 0.747063 0.193127
0.420793 0.749268 0.194278
0.444349 0.751472 0.195417
0.467919 0.753675 0.196543
0.491502 0.755877 0.197657
0.515099 0.758078 0.198757
0.538709 0.760278 0.199845
0.562333 0.762476 0.200920
0.585970 0.764673 0.201983
0.609621 0.766870 0.203032
0.633285 0.769065 0.204069
0.656963 0.771258 0.205093
0.680654 0.773451 0.206105
0.704359 0.775643 0.207103
0.728077 0.777833 0.208089
0.751809 0.780022 0.209063
0.775555 0.782210 0.210023
0.799314 0.784397 0.210971
0.823086 0.786583 0.211906
0.846872 0.788767 0.212828
0.870672 0.790951 0.213737
