luts/Cinematic Teal & Orange.cube
# Cinematic Teal & Orange LUT
LUT_3D_SIZE 5
0.000000 0.003500 0.021000
0.169452 0.021730 0.041091
0.346282 0.039980 0.060864
0.526408 0.058327 0.077823
0.707399 0.076600 0.093966
0.045540 0.227488 0.083794
0.226846 0.245734 0.099640
0.409018 0.263906 0.114670
0.592054 0.282004 0.128885
0.775956 0.300028 0.142284
0.112246 0.451075 0.133857
0.296462 0.469071 0.146959
0.481544 0.486994 0.159245
0.667491 0.504843 0.170716
0.854303 0.522617 0.181371
0.188742 0.673822 0.174689
0.375869 0.691569 0.185047
0.563861 0.709243 0.194589
0.752718 0.726841 0.203315
0.942440 0.744366 0.211226
0.275029 0.895730 0.206290
0.465066 0.913228 0.213904
0.655968 0.930652 0.220702
0.847736 0.948001 0.226684
1.000000 0.965494 0.236547
0.000000 0.009691 0.190323
0.174190 0.027922 0.210414
0.352171 0.046219 0.229215
0.532591 0.064541 0.245896
0.713876 0.082789 0.261762
0.051830 0.233693 0.251767
0.233430 0.251914 0.267336
0.415895 0.270061 0.282089
0.599225 0.288134 0.296027
0.783421 0.306132 0.309148
0.119524 0.457195 0.300898
0.304034 0.475166 0.313723
0.489410 0.493064 0.325732
0.675650 0.510887 0.336926
0.862756 0.528636 0.347303
0.197008 0.679857 0.340798
0.384429 0.697580 0.350879
0.572715 0.715228 0.360144
0.761866 0.732801 0.368593
0.951882 0.750301 0.376227
0.284283 0.901681 0.371467
0.474615 0.919154 0.378804
0.665811 0.936552 0.385325
0.857872 0.953876 0.391030
1.000000 0.971495 0.403786
0.002476 0.015882 0.359646
0.178928 0.034113 0.379737
0.358160 0.052449 0.397471
0.538873 0.070746 0.413876
0.720452 0.088969 0.429465
0.058219 0.239889 0.419646
0.240113 0.258085 0.434938
0.422872 0.276207 0.449414
0.606496 0.294254 0.463074
0.790985 0.312228 0.475919
0.126901 0.463306 0.467845
0.311706 0.481253 0.480393
0.497375 0.499125 0.492125
0.683909 0.516923 0.503041
0.871309 0.534647 0.513142
0.205374 0.685884 0.506813
0.393089 0.703581 0.516617
0.581669 0.721204 0.525605
0.771114 0.738753 0.533777
0.961424 0.756227 0.541134
0.293638 0.907623 0.536550
0.484263 0.925070 0.543610
0.675753 0.942444 0.549854
0.866139 0.959824 0.557072
1.000000 0.977497 0.571024
0.007214 0.022073 0.528969
0.184106 0.040326 0.548691
0.364248 0.058672 0.565634
0.545256 0.076943 0.581762
0.727128 0.095141 0.597073
0.064708 0.246077 0.587430
0.246896 0.264248 0.602445
0.429949 0.282344 0.616644
0.613867 0.300367 0.630028
0.798650 0.318315 0.642596
0.134379 0.469409 0.634698
0.319477 0.487331 0.646969
0.505440 0.505178 0.658424
0.692269 0.522951 0.669063
0.879962 0.540649 0.678887
0.213840 0.691903 0.672734
0.401849 0.709574 0.682261
0.590722 0.727172 0.690972
0.780461 0.744695 0.698867
0.971065 0.762145 0.705947
0.303092 0.913557 0.701539
0.494011 0.930979 0.708322
0.685795 0.948327 0.714289
0.873088 0.965826 0.724310
1.000000 0.983498 0.738262
0.011952 0.028265 0.698292
0.190000 0.046564 0.717036
0.370436 0.064885 0.733702
0.551738 0.083132 0.749553
0.733904 0.101304 0.764588
0.071297 0.252256 0.755121
0.253779 0.270402 0.769859
0.437125 0.288473 0.783781
0.621337 0.306470 0.796887
0.806414 0.324393 0.809178
0.141956 0.475504 0.801457
0.327348 0.493400 0.813450
0.513605 0.511222 0.824628
0.700727 0.528969 0.834991
0.888715 0.546643 0.844537
0.222406 0.697912 0.838561
0.410708 0.715559 0.847811
0.599876 0.733131 0.856245
0.789908 0.750629 0.863863
0.980806 0.768054 0.870666
0.312646 0.919482 0.866434
0.503859 0.936879 0.872940
0.695937 0.954202 0.878630
0.880037 0.971828 0.891548
1.000000 0.989500 0.905500
