luts/custom-lut-seed-7727-samples-62-495f60cd.cube
TITLE "custom-lut-seed-7727"
DOMAIN_MIN 0.0 0.0 0.0
DOMAIN_MAX 1.0 1.0 1.0
LUT_3D_SIZE 5
0.000000 0.000000 0.000000
0.236648 0.000000 0.000000
0.488594 0.000000 0.000000
0.744372 0.000000 0.000000
1.000000 0.000000 0.000000
0.000000 0.232057 0.000000
0.234517 0.233898 0.000000
0.488914 0.237989 0.000000
0.749684 0.239635 0.000000
0.994287 0.239813 0.000000
0.000000 0.483302 0.000000
0.230997 0.485621 0.000000
0.488734 0.488393 0.000000
0.740167 0.485176 0.000000
0.993683 0.488062 0.000000
0.000000 0.739877 0.000000
0.246034 0.743340 0.000000
0.497333 0.740115 0.000000
0.745754 0.739069 0.000000
0.995403 0.740183 0.000000
0.000000 1.000000 0.000000
0.254916 0.992292 0.000000
0.515761 0.992618 0.000000
0.748988 0.988135 0.000000
1.000000 1.000000 0.000000
0.000000 0.000000 0.212913
0.232125 0.000000 0.222550
0.488341 0.000000 0.233092
0.742293 0.000000 0.237643
0.993936 0.000000 0.239769
0.000000 0.222580 0.212493
0.227553 0.226126 0.219264
0.487653 0.235932 0.229689
0.736170 0.232662 0.229862
0.994144 0.238943 0.237773
0.000000 0.490429 0.236989
0.216504 0.466049 0.212560
0.489025 0.486859 0.231060
0.748231 0.489541 0.226197
0.995883 0.489538 0.238545
0.000000 0.745264 0.243478
0.242408 0.738638 0.234692
0.497584 0.742305 0.240195
0.747559 0.742262 0.242602
0.996402 0.741959 0.242940
0.000000 0.990979 0.241229
0.250039 0.990534 0.240233
0.508259 0.989711 0.239242
0.748353 0.982522 0.237341
0.996281 0.990704 0.241447
0.000000 0.000000 0.447087
0.234293 0.000000 0.471900
0.490009 0.000000 0.485427
0.740785 0.000000 0.489437
0.992678 0.000000 0.490815
0.000000 0.213662 0.412094
0.233220 0.229816 0.471745
0.490556 0.238036 0.488976
0.744037 0.233890 0.486292
0.996307 0.240259 0.492902
0.000000 0.482890 0.476898
0.232595 0.480631 0.478125
0.485503 0.483303 0.482781
0.745693 0.490268 0.490594
0.998098 0.492692 0.494340
0.000000 0.738534 0.492897
0.239809 0.736740 0.492969
0.481275 0.729020 0.478989
0.741871 0.738196 0.488327
0.995842 0.741915 0.492460
0.000000 0.990090 0.499110
0.244118 0.988823 0.502154
0.492764 0.987392 0.488819
0.744057 0.988847 0.489756
0.994978 0.990490 0.491119
0.000000 0.000000 0.723237
0.240988 0.000000 0.734951
0.495279 0.000000 0.741236
0.743115 0.000000 0.740512
0.994134 0.000000 0.741864
0.000000 0.230666 0.720676
0.241008 0.237341 0.737915
0.493689 0.240508 0.744171
0.741527 0.236695 0.739098
0.997745 0.241701 0.745701
0.000000 0.484275 0.729056
0.228346 0.477507 0.726187
0.482440 0.480439 0.731329
0.732272 0.478736 0.730297
0.996503 0.491075 0.744213
0.000000 0.742680 0.738553
0.236757 0.740942 0.736859
0.458776 0.708526 0.708660
0.748463 0.747071 0.747710
0.995624 0.742484 0.743482
0.000000 0.992770 0.743159
0.240776 0.991275 0.742749
0.489645 0.987847 0.741164
0.743815 0.991430 0.743575
0.995118 0.992222 0.743119
0.000000 0.000000 1.000000
0.240507 0.000000 0.985557
0.492894 0.000000 0.987074
0.743510 0.000000 0.990211
1.000000 0.000000 1.000000
0.000000 0.234755 0.981575
0.237294 0.235037 0.983209
0.488980 0.236781 0.982983
0.740953 0.237398 0.987915
0.995052 0.241878 0.992954
0.000000 0.486648 0.981922
0.228583 0.478827 0.976469
0.482241 0.480718 0.980314
0.738986 0.486009 0.986891
0.993156 0.489392 0.990773
0.000000 0.748760 0.988622
0.239369 0.753116 0.988731
0.486741 0.736539 0.988699
0.741403 0.739468 0.991846
0.993904 0.741200 0.992335
0.000000 1.000000 1.000000
0.241353 0.995209 0.991884
0.493885 0.993580 1.000000
0.743819 0.992237 0.998118
1.000000 1.000000 1.000000
