luts/custom-lut-seed-7727-samples-62-495f60cd.cube
TITLE "custom-lut-seed-7727"
DOMAIN_MIN 0.0 0.0 0.0
DOMAIN_MAX 1.0 1.0 1.0
LUT_3D_SIZE 25
0.000000 0.000000 0.000000
0.038930 0.000000 0.000000
0.075796 0.000000 0.000000
0.114142 0.000000 0.000000
0.154121 0.000000 0.000000
0.195107 0.000000 0.000000
0.236648 0.000000 0.000000
0.278480 0.000000 0.000000
0.320446 0.000000 0.000000
0.362451 0.000000 0.000000
0.404451 0.000000 0.000000
0.446465 0.000000 0.000000
0.488594 0.000000 0.000000
0.530978 0.000000 0.000000
0.573656 0.000000 0.000000
0.616520 0.000000 0.000000
0.659371 0.000000 0.000000
0.702012 0.000000 0.000000
0.744372 0.000000 0.000000
0.786583 0.000000 0.000000
0.828876 0.000000 0.000000
0.871387 0.000000 0.000000
0.914099 0.000000 0.000000
0.957202 0.000000 0.000000
1.000000 0.000000 0.000000
0.000000 0.038487 0.000000
0.036618 0.035986 0.000000
0.074378 0.031636 0.000000
0.113256 0.028572 0.000000
0.153504 0.027063 0.000000
0.194647 0.026582 0.000000
0.236299 0.026716 0.000000
0.278215 0.027223 0.000000
0.320238 0.027978 0.000000
0.362260 0.028925 0.000000
0.404220 0.030023 0.000000
0.446133 0.031123 0.000000
0.488182 0.031832 0.000000
0.530662 0.031825 0.000000
0.573685 0.031441 0.000000
0.617079 0.031257 0.000000
0.660481 0.031436 0.000000
0.703415 0.031811 0.000000
0.745642 0.032270 0.000000
0.787473 0.032966 0.000000
0.829447 0.034174 0.000000
0.871834 0.035935 0.000000
0.914363 0.037675 0.000000
0.956723 0.038953 0.000000
0.998901 0.039847 0.000000
0.000000 0.074369 0.000000
0.032426 0.073005 0.000000
0.071935 0.070660 0.000000
0.111910 0.068853 0.000000
0.152692 0.067960 0.000000
0.194110 0.067794 0.000000
0.235929 0.068119 0.000000
0.277965 0.068763 0.000000
0.320073 0.069633 0.000000
0.362137 0.070697 0.000000
0.404072 0.071956 0.000000
0.445883 0.073297 0.000000
0.487820 0.074168 0.000000
0.530389 0.073956 0.000000
0.573850 0.073259 0.000000
0.618110 0.073082 0.000000
0.662671 0.073572 0.000000
0.706271 0.074161 0.000000
0.748012 0.074413 0.000000
0.788807 0.074709 0.000000
0.829977 0.075646 0.000000
0.871966 0.077350 0.000000
0.914306 0.079041 0.000000
0.956154 0.079543 0.000000
0.997601 0.079267 0.000000
0.000000 0.111741 0.000000
0.029110 0.111057 0.000000
0.069741 0.109998 0.000000
0.110576 0.109171 0.000000
0.151854 0.108841 0.000000
0.193556 0.108991 0.000000
0.235564 0.109511 0.000000
0.277749 0.110289 0.000000
0.319980 0.111239 0.000000
0.362132 0.112315 0.000000
0.404105 0.113505 0.000000
0.445901 0.114712 0.000000
0.487796 0.115433 0.000000
0.530375 0.115092 0.000000
0.574163 0.114421 0.000000
0.619675 0.114714 0.000000
0.666822 0.116266 0.000000
0.712297 0.117629 0.000000
0.752460 0.117244 0.000000
0.790764 0.116502 0.000000
0.830456 0.116723 0.000000
0.871671 0.117876 0.000000
0.913581 0.119157 0.000000
0.955284 0.119559 0.000000
0.996632 0.119175 0.000000
0.000000 0.150886 0.000000
0.027017 0.150507 0.000000
0.068166 0.150051 0.000000
0.109477 0.149774 0.000000
0.151088 0.149824 0.000000
0.193020 0.150225 0.000000
0.235217 0.150926 0.000000
0.277581 0.151841 0.000000
0.319989 0.152870 0.000000
0.362299 0.153910 0.000000
0.404382 0.154855 0.000000
0.446218 0.155563 0.000000
0.488042 0.155751 0.000000
0.530379 0.155255 0.000000
0.574083 0.154820 0.000000
0.620753 0.155886 0.000000
0.672100 0.159425 0.000000
0.721816 0.162649 0.000000
0.758210 0.160682 0.000000
0.792530 0.158206 0.000000
0.830634 0.157556 0.000000
0.871124 0.158041 0.000000
0.912598 0.158808 0.000000
0.954215 0.159200 0.000000
0.995695 0.159109 0.000000
0.000000 0.191149 0.000000
0.025741 0.190884 0.000000
0.067085 0.190676 0.000000
0.108608 0.190659 0.000000
0.150403 0.190928 0.000000
0.192501 0.191514 0.000000
0.234878 0.192387 0.000000
0.277460 0.193472 0.000000
0.320126 0.194651 0.000000
0.362703 0.195753 0.000000
0.404982 0.196546 0.000000
0.446820 0.196789 0.000000
0.488323 0.196334 0.000000
0.529972 0.195344 0.000000
0.572846 0.194673 0.000000
0.619043 0.195855 0.000000
0.670755 0.199994 0.000000
0.721277 0.203841 0.000000
0.757502 0.201700 0.000000
0.791784 0.198999 0.000000
0.829930 0.198127 0.000000
0.870337 0.198288 0.000000
0.911680 0.198771 0.000000
0.953289 0.199151 0.000000
0.994896 0.199286 0.000000
0.000000 0.232057 0.000000
0.024945 0.231805 0.000000
0.066319 0.231670 0.000000
0.107898 0.231751 0.000000
0.149766 0.232131 0.000000
0.191973 0.232851 0.000000
0.234517 0.233898 0.000000
0.277353 0.235207 0.000000
0.320381 0.236665 0.000000
0.363404 0.238063 0.000000
0.406061 0.239025 0.000000
0.447930 0.239072 0.000000
0.488914 0.237989 0.000000
0.529529 0.236151 0.000000
0.570972 0.234636 0.000000
0.615081 0.234959 0.000000
0.662447 0.237454 0.000000
0.708923 0.239786 0.000000
0.749684 0.239635 0.000000
0.788424 0.238723 0.000000
0.828319 0.238438 0.000000
0.869314 0.238682 0.000000
0.910849 0.239125 0.000000
0.952563 0.239537 0.000000
0.994287 0.239813 0.000000
0.000000 0.273354 0.000000
0.024448 0.273061 0.000000
0.065761 0.272906 0.000000
0.107296 0.272991 0.000000
0.149155 0.273414 0.000000
0.191406 0.274233 0.000000
0.234078 0.275449 0.000000
0.277166 0.277014 0.000000
0.320632 0.278853 0.000000
0.364310 0.280797 0.000000
0.407645 0.282325 0.000000
0.449694 0.282474 0.000000
0.490130 0.280803 0.000000
0.529800 0.278101 0.000000
0.570065 0.275752 0.000000
0.612330 0.275079 0.000000
0.656591 0.276087 0.000000
0.700816 0.277397 0.000000
0.743424 0.278080 0.000000
0.785000 0.278390 0.000000
0.826534 0.278761 0.000000
0.868279 0.279261 0.000000
0.910144 0.279798 0.000000
0.952022 0.280280 0.000000
0.993857 0.280657 0.000000
0.000000 0.314922 0.000000
0.024178 0.314556 0.000000
0.065376 0.314331 0.000000
0.106802 0.314366 0.000000
0.148577 0.314787 0.000000
0.190794 0.315676 0.000000
0.233502 0.317041 0.000000
0.276737 0.318827 0.000000
0.320557 0.320982 0.000000
0.364923 0.323463 0.000000
0.409150 0.325740 0.000000
0.451458 0.326093 0.000000
0.491402 0.323882 0.000000
0.530600 0.320688 0.000000
0.570417 0.318003 0.000000
0.611636 0.316652 0.000000
0.654152 0.316557 0.000000
0.697147 0.317084 0.000000
0.740050 0.317819 0.000000
0.782724 0.318608 0.000000
0.825193 0.319381 0.000000
0.867491 0.320104 0.000000
0.909642 0.320754 0.000000
0.951667 0.321310 0.000000
0.993589 0.321759 0.000000
0.000000 0.356711 0.000000
0.024129 0.356263 0.000000
0.065186 0.355946 0.000000
0.106456 0.355901 0.000000
0.148081 0.356290 0.000000
0.190167 0.357235 0.000000
0.232760 0.358743 0.000000
0.275900 0.360679 0.000000
0.319717 0.362872 0.000000
0.364305 0.365304 0.000000
0.408958 0.367635 0.000000
0.451493 0.368018 0.000000
0.491536 0.365811 0.000000
0.531044 0.362878 0.000000
0.571033 0.360387 0.000000
0.611832 0.358755 0.000000
0.653417 0.357973 0.000000
0.695690 0.357944 0.000000
0.738541 0.358557 0.000000
0.781602 0.359492 0.000000
0.824493 0.360438 0.000000
0.867077 0.361274 0.000000
0.909386 0.361990 0.000000
0.951494 0.362591 0.000000
0.993462 0.363080 0.000000
0.000000 0.398707 0.000000
0.024325 0.398188 0.000000
0.065240 0.397776 0.000000
0.106332 0.397637 0.000000
0.147756 0.397981 0.000000
0.189616 0.398994 0.000000
0.231911 0.400720 0.000000
0.274600 0.402891 0.000000
0.317886 0.404944 0.000000
0.362070 0.406574 0.000000
0.406429 0.407818 0.000000
0.449304 0.407925 0.000000
0.490436 0.406502 0.000000
0.530933 0.404449 0.000000
0.571490 0.402512 0.000000
0.612351 0.400984 0.000000
0.653651 0.399993 0.000000
0.695625 0.399713 0.000000
0.738348 0.400175 0.000000
0.781427 0.401047 0.000000
0.824384 0.401966 0.000000
0.867022 0.402789 0.000000
0.909360 0.403497 0.000000
0.951479 0.404096 0.000000
0.993454 0.404589 0.000000
0.000000 0.440907 0.000000
0.024802 0.440343 0.000000
0.065605 0.439856 0.000000
0.106534 0.439629 0.000000
0.147744 0.439918 0.000000
0.189325 0.441013 0.000000
0.231169 0.443098 0.000000
0.273004 0.445918 0.000000
0.315185 0.448212 0.000000
0.358954 0.448754 0.000000
0.403514 0.448525 0.000000
0.447041 0.448097 0.000000
0.489264 0.447180 0.000000
0.530746 0.445902 0.000000
0.571960 0.444566 0.000000
0.613168 0.443381 0.000000
0.654597 0.442527 0.000000
0.696529 0.442216 0.000000
0.739062 0.442503 0.000000
0.781912 0.443158 0.000000
0.824696 0.443905 0.000000
0.867227 0.444613 0.000000
0.909502 0.445247 0.000000
0.951584 0.445797 0.000000
0.993535 0.446260 0.000000
0.000000 0.483302 0.000000
0.025587 0.482739 0.000000
0.066351 0.482225 0.000000
0.107189 0.481944 0.000000
0.148246 0.482175 0.000000
0.189591 0.483281 0.000000
0.230997 0.485621 0.000000
0.271879 0.489209 0.000000
0.312718 0.492246 0.000000
0.356407 0.491806 0.000000
0.401660 0.490164 0.000000
0.445819 0.489161 0.000000
0.488734 0.488393 0.000000
0.530874 0.487574 0.000000
0.572614 0.486712 0.000000
0.614205 0.485907 0.000000
0.655874 0.485299 0.000000
0.697838 0.485040 0.000000
0.740167 0.485176 0.000000
0.782709 0.485590 0.000000
0.825227 0.486120 0.000000
0.867582 0.486668 0.000000
0.909752 0.487189 0.000000
0.951772 0.487658 0.000000
0.993683 0.488062 0.000000
0.000000 0.525873 0.000000
0.026685 0.525371 0.000000
0.067521 0.524909 0.000000
0.108410 0.524654 0.000000
0.149478 0.524855 0.000000
0.190758 0.525821 0.000000
0.232009 0.527841 0.000000
0.272730 0.530909 0.000000
0.313516 0.533496 0.000000
0.356866 0.533147 0.000000
0.401718 0.531603 0.000000
0.445833 0.530611 0.000000
0.488966 0.530000 0.000000
0.531425 0.529476 0.000000
0.573482 0.528948 0.000000
0.615341 0.528444 0.000000
0.657180 0.528045 0.000000
0.699149 0.527847 0.000000
0.741302 0.527885 0.000000
0.783573 0.528118 0.000000
0.825839 0.528464 0.000000
0.868014 0.528859 0.000000
0.910069 0.529258 0.000000
0.952017 0.529633 0.000000
0.993881 0.529964 0.000000
0.000000 0.568585 0.000000
0.028062 0.568207 0.000000
0.069092 0.567884 0.000000
0.110211 0.567775 0.000000
0.151528 0.568064 0.000000
0.193022 0.568875 0.000000
0.234447 0.570198 0.000000
0.275597 0.571861 0.000000
0.317008 0.573180 0.000000
0.359733 0.573298 0.000000
0.403385 0.572705 0.000000
0.446883 0.572174 0.000000
0.489857 0.571813 0.000000
0.532363 0.571513 0.000000
0.574537 0.571210 0.000000
0.616512 0.570907 0.000000
0.658413 0.570649 0.000000
0.700340 0.570496 0.000000
0.742344 0.570483 0.000000
0.784406 0.570604 0.000000
0.826470 0.570822 0.000000
0.868487 0.571096 0.000000
0.910433 0.571390 0.000000
0.952306 0.571676 0.000000
0.994119 0.571934 0.000000
0.000000 0.611392 0.000000
0.029635 0.611175 0.000000
0.070942 0.611055 0.000000
0.112428 0.611202 0.000000
0.154226 0.611775 0.000000
0.196247 0.612702 0.000000
0.238033 0.613551 0.000000
0.279351 0.614041 0.000000
0.320785 0.614300 0.000000
0.362947 0.614315 0.000000
0.405709 0.614133 0.000000
0.448575 0.613926 0.000000
0.491234 0.613759 0.000000
0.533612 0.613605 0.000000
0.575745 0.613434 0.000000
0.617705 0.613246 0.000000
0.659572 0.613070 0.000000
0.701419 0.612948 0.000000
0.743290 0.612915 0.000000
0.785190 0.612979 0.000000
0.827097 0.613123 0.000000
0.868984 0.613319 0.000000
0.910831 0.613537 0.000000
0.952633 0.613752 0.000000
0.994392 0.613946 0.000000
0.000000 0.654243 0.000000
0.031289 0.654182 0.000000
0.072872 0.654255 0.000000
0.114730 0.654670 0.000000
0.157072 0.655653 0.000000
0.199815 0.657080 0.000000
0.242057 0.657915 0.000000
0.283173 0.657449 0.000000
0.324226 0.656696 0.000000
0.365962 0.656266 0.000000
0.408219 0.656048 0.000000
0.450630 0.655913 0.000000
0.492955 0.655808 0.000000
0.535105 0.655701 0.000000
0.577082 0.655576 0.000000
0.618924 0.655432 0.000000
0.660685 0.655292 0.000000
0.702418 0.655191 0.000000
0.744162 0.655161 0.000000
0.785929 0.655211 0.000000
0.827711 0.655330 0.000000
0.869492 0.655492 0.000000
0.911255 0.655670 0.000000
0.952991 0.655840 0.000000
0.994697 0.655988 0.000000
0.000000 0.697085 0.000000
0.032908 0.697137 0.000000
0.074689 0.697312 0.000000
0.116761 0.697840 0.000000
0.159364 0.699010 0.000000
0.202461 0.700770 0.000000
0.244967 0.701729 0.000000
0.286050 0.700704 0.000000
0.327083 0.699339 0.000000
0.368779 0.698601 0.000000
0.410851 0.698272 0.000000
0.452971 0.698087 0.000000
0.494974 0.697932 0.000000
0.536826 0.697775 0.000000
0.578549 0.697610 0.000000
0.620185 0.697447 0.000000
0.661777 0.697307 0.000000
0.703366 0.697221 0.000000
0.744979 0.697213 0.000000
0.786628 0.697287 0.000000
0.828307 0.697426 0.000000
0.870001 0.697600 0.000000
0.911694 0.697777 0.000000
0.953373 0.697935 0.000000
0.995032 0.698059 0.000000
0.000000 0.739877 0.000000
0.034402 0.739974 0.000000
0.076281 0.740130 0.000000
0.118376 0.740536 0.000000
0.160850 0.741415 0.000000
0.203624 0.742686 0.000000
0.246034 0.743340 0.000000
0.287739 0.742602 0.000000
0.329503 0.741567 0.000000
0.371600 0.740970 0.000000
0.413734 0.740658 0.000000
0.455663 0.740399 0.000000
0.497333 0.740115 0.000000
0.538804 0.739818 0.000000
0.580172 0.739534 0.000000
0.621512 0.739290 0.000000
0.662873 0.739115 0.000000
0.704282 0.739037 0.000000
0.745754 0.739069 0.000000
0.787289 0.739202 0.000000
0.828878 0.739405 0.000000
0.870502 0.739639 0.000000
0.912142 0.739864 0.000000
0.953780 0.740052 0.000000
0.995403 0.740183 0.000000
0.000000 0.782600 0.000000
0.035708 0.782671 0.000000
0.077618 0.782712 0.000000
0.119674 0.782866 0.000000
0.161983 0.783270 0.000000
0.204499 0.783845 0.000000
0.247012 0.784150 0.000000
0.289504 0.783926 0.000000
0.332141 0.783570 0.000000
0.374768 0.783365 0.000000
0.417059 0.783173 0.000000
0.458837 0.782831 0.000000
0.500122 0.782354 0.000000
0.541094 0.781836 0.000000
0.581976 0.781356 0.000000
0.622919 0.780971 0.000000
0.663982 0.780724 0.000000
0.705176 0.780645 0.000000
0.746490 0.780735 0.000000
0.787910 0.780963 0.000000
0.829417 0.781279 0.000000
0.870989 0.781629 0.000000
0.912600 0.781967 0.000000
0.954222 0.782245 0.000000
0.995827 0.782424 0.000000
0.000000 0.825303 0.000000
0.036802 0.825268 0.000000
0.078693 0.825115 0.000000
0.120745 0.825001 0.000000
0.163080 0.825047 0.000000
0.205734 0.825236 0.000000
0.248695 0.825425 0.000000
0.291966 0.825547 0.000000
0.335400 0.825691 0.000000
0.378554 0.825843 0.000000
0.421038 0.825778 0.000000
0.462676 0.825343 0.000000
0.503456 0.824631 0.000000
0.543729 0.823829 0.000000
0.583949 0.823087 0.000000
0.624381 0.822504 0.000000
0.665086 0.822151 0.000000
0.706035 0.822066 0.000000
0.747180 0.822234 0.000000
0.788484 0.822594 0.000000
0.829919 0.823078 0.000000
0.871461 0.823623 0.000000
0.913081 0.824171 0.000000
0.954732 0.824643 0.000000
0.996352 0.824929 0.000000
0.000000 0.868215 0.000000
0.037759 0.867955 0.000000
0.079541 0.867464 0.000000
0.121595 0.867044 0.000000
0.164093 0.866849 0.000000
0.207124 0.866883 0.000000
0.250740 0.867096 0.000000
0.294926 0.867454 0.000000
0.339365 0.867926 0.000000
0.383341 0.868339 0.000000
0.426195 0.868379 0.000000
0.467545 0.867860 0.000000
0.507433 0.866902 0.000000
0.546645 0.865783 0.000000
0.585989 0.864740 0.000000
0.625812 0.863924 0.000000
0.666125 0.863446 0.000000
0.706823 0.863355 0.000000
0.747803 0.863621 0.000000
0.788998 0.864151 0.000000
0.830377 0.864861 0.000000
0.871923 0.865702 0.000000
0.913615 0.866627 0.000000
0.955380 0.867482 0.000000
0.997070 0.867973 0.000000
0.000000 0.911847 0.000000
0.038809 0.911152 0.000000
0.080281 0.909980 0.000000
0.122256 0.909089 0.000000
0.164935 0.908659 0.000000
0.208392 0.908620 0.000000
0.252715 0.908891 0.000000
0.297944 0.909427 0.000000
0.343795 0.910149 0.000000
0.389292 0.910802 0.000000
0.432865 0.910958 0.000000
0.473436 0.910336 0.000000
0.511739 0.909104 0.000000
0.549509 0.907669 0.000000
0.587857 0.906341 0.000000
0.627065 0.905309 0.000000
0.667013 0.904714 0.000000
0.707491 0.904626 0.000000
0.748327 0.904995 0.000000
0.789432 0.905707 0.000000
0.830774 0.906683 0.000000
0.872363 0.907929 0.000000
0.914216 0.909472 0.000000
0.956242 0.911068 0.000000
0.998101 0.911934 0.000000
0.000000 0.956490 0.000000
0.040068 0.955060 0.000000
0.080982 0.952713 0.000000
0.122782 0.951161 0.000000
0.165578 0.950464 0.000000
0.209357 0.950350 0.000000
0.254211 0.950650 0.000000
0.300265 0.951286 0.000000
0.347356 0.952169 0.000000
0.394320 0.953015 0.000000
0.438550 0.953270 0.000000
0.478231 0.952533 0.000000
0.515027 0.951076 0.000000
0.551605 0.949428 0.000000
0.589208 0.947928 0.000000
0.627978 0.946770 0.000000
0.667671 0.946111 0.000000
0.707992 0.946030 0.000000
0.748727 0.946476 0.000000
0.789766 0.947329 0.000000
0.831087 0.948539 0.000000
0.872735 0.950208 0.000000
0.914801 0.952526 0.000000
0.957226 0.955234 0.000000
0.999351 0.956661 0.000000
0.000000 1.000000 0.000000
0.040804 0.998125 0.000000
0.081428 0.995033 0.000000
0.123160 0.993077 0.000000
0.166016 0.992208 0.000000
0.209914 0.992024 0.000000
0.254916 0.992292 0.000000
0.301124 0.992907 0.000000
0.348339 0.993757 0.000000
0.395321 0.994559 0.000000
0.439443 0.994777 0.000000
0.479031 0.994044 0.000000
0.515761 0.992618 0.000000
0.552257 0.991004 0.000000
0.589765 0.989529 0.000000
0.628442 0.988392 0.000000
0.668052 0.987747 0.000000
0.708305 0.987675 0.000000
0.748988 0.988135 0.000000
0.789988 0.989031 0.000000
0.831290 0.990344 0.000000
0.872957 0.992227 0.000000
0.915118 0.994959 0.000000
0.957739 0.998279 0.000000
1.000000 1.000000 0.000000
0.000000 0.000000 0.037063
0.036424 0.000000 0.033455
0.074061 0.000000 0.027184
0.112887 0.000000 0.022742
0.153146 0.000000 0.020499
0.194334 0.000000 0.019696
0.236037 0.000000 0.019757
0.277998 0.000000 0.020366
0.320057 0.000000 0.021382
0.362114 0.000000 0.022751
0.404109 0.000000 0.024420
0.446057 0.000000 0.026152
0.488105 0.000000 0.027407
0.530478 0.000000 0.027784
0.573226 0.000000 0.027676
0.616179 0.000000 0.027728
0.659102 0.000000 0.028141
0.701800 0.000000 0.028812
0.744211 0.000000 0.029672
0.786487 0.000000 0.030833
0.828882 0.000000 0.032503
0.871523 0.000000 0.034675
0.914173 0.000000 0.036762
0.956643 0.000000 0.038402
0.998878 0.000000 0.039530
0.000000 0.035578 0.033221
0.034307 0.033425 0.030243
0.072650 0.029757 0.025122
0.111936 0.027162 0.021404
0.152454 0.025960 0.019524
0.193808 0.025717 0.018910
0.235636 0.026061 0.019086
0.277696 0.026769 0.019798
0.319821 0.027741 0.020969
0.361887 0.028973 0.022659
0.403793 0.030524 0.024988
0.445505 0.032307 0.027802
0.487286 0.033550 0.029885
0.529738 0.033221 0.029750
0.572969 0.032084 0.028585
0.616564 0.031420 0.028154
0.660108 0.031411 0.028581
0.703139 0.031742 0.029335
0.745436 0.032216 0.030113
0.787353 0.032997 0.031153
0.829515 0.034472 0.032982
0.872308 0.036869 0.035901
0.915257 0.039248 0.038775
0.957021 0.039470 0.039056
0.998391 0.039012 0.038531
0.000000 0.072265 0.026341
0.030589 0.071014 0.024615
0.070360 0.068978 0.021733
0.110592 0.067465 0.019464
0.151599 0.066823 0.018278
0.193221 0.066886 0.017970
0.235223 0.067426 0.018271
0.277413 0.068286 0.019033
0.319633 0.069398 0.020259
0.361738 0.070807 0.022136
0.403571 0.072720 0.025063
0.444991 0.075345 0.029324
0.486324 0.077559 0.032996
0.528864 0.076576 0.031923
0.572772 0.074212 0.029115
0.617384 0.073207 0.028407
0.662226 0.073480 0.029401
0.706027 0.074064 0.030580
0.747814 0.074333 0.031030
0.788640 0.074710 0.031420
0.830008 0.075979 0.032882
0.872571 0.078645 0.036062
0.915781 0.081743 0.039771
0.957286 0.081525 0.039521
0.997806 0.079625 0.037292
0.000000 0.110096 0.021067
0.027564 0.109417 0.020129
0.068292 0.108477 0.018734
0.109278 0.107822 0.017595
0.150734 0.107688 0.017016
0.192623 0.108045 0.016969
0.234817 0.108778 0.017335
0.277167 0.109776 0.018039
0.319526 0.110972 0.019126
0.361732 0.112384 0.020825
0.403607 0.114195 0.023628
0.445004 0.116680 0.027993
0.486277 0.118850 0.031984
0.528776 0.117627 0.030753
0.572878 0.115088 0.027960
0.618757 0.114562 0.028243
0.666667 0.116155 0.031366
0.712887 0.117784 0.034133
0.752696 0.117272 0.033325
0.790605 0.116437 0.031833
0.830350 0.116872 0.032079
0.871952 0.118655 0.034121
0.914368 0.120708 0.036563
0.956002 0.120866 0.036769
0.996911 0.119668 0.035383
0.000000 0.149468 0.017946
0.025619 0.149048 0.017364
0.066790 0.148628 0.016663
0.108186 0.148448 0.016124
0.149932 0.148645 0.015897
0.192033 0.149229 0.015982
0.234417 0.150139 0.016312
0.276966 0.151280 0.016828
0.319534 0.152554 0.017552
0.361938 0.153871 0.018656
0.403984 0.155190 0.020482
0.445580 0.156454 0.023178
0.487032 0.157071 0.025467
0.529057 0.155969 0.025334
0.572486 0.154405 0.024734
0.619428 0.155097 0.027153
0.673220 0.159682 0.034741
0.726470 0.164461 0.042182
0.759979 0.161284 0.037247
0.792473 0.158091 0.032166
0.830392 0.157468 0.030909
0.871082 0.158226 0.031660
0.912781 0.159271 0.032887
0.954443 0.159651 0.033366
0.995822 0.159332 0.033034
0.000000 0.189866 0.016276
0.024421 0.189526 0.015814
0.065734 0.189297 0.015368
0.107286 0.189318 0.015061
0.149172 0.189686 0.014960
0.191423 0.190432 0.015051
0.233998 0.191518 0.015256
0.276806 0.192856 0.015476
0.319698 0.194311 0.015648
0.362462 0.195688 0.015853
0.404809 0.196710 0.016391
0.446486 0.197032 0.017558
0.487515 0.196311 0.018928
0.528273 0.194425 0.019588
0.569964 0.192533 0.020147
0.616092 0.193581 0.023472
0.671091 0.199681 0.032738
0.726304 0.205886 0.041921
0.759162 0.202226 0.036352
0.791542 0.198707 0.030891
0.829543 0.197828 0.029354
0.870116 0.198142 0.029589
0.911616 0.198766 0.030324
0.953304 0.199198 0.030876
0.994924 0.199308 0.031063
0.000000 0.230865 0.015478
0.023657 0.230500 0.015008
0.064940 0.230282 0.014594
0.106484 0.230334 0.014308
0.148398 0.230764 0.014189
0.190744 0.231627 0.014207
0.233515 0.232908 0.014247
0.276648 0.234529 0.014118
0.320031 0.236368 0.013608
0.363447 0.238200 0.012642
0.406432 0.239551 0.011644
0.448258 0.239635 0.011724
0.488442 0.237837 0.013354
0.527232 0.234280 0.014914
0.565982 0.230382 0.015398
0.609375 0.230317 0.017754
0.659339 0.234963 0.024073
0.708153 0.238920 0.029393
0.749064 0.238977 0.029277
0.787686 0.238071 0.027774
0.827778 0.237936 0.027407
0.869006 0.238350 0.027857
0.910708 0.238926 0.028569
0.952518 0.239419 0.029206
0.994288 0.239737 0.029643
0.000000 0.272229 0.015213
0.023155 0.271770 0.014660
0.064305 0.271459 0.014160
0.105731 0.271438 0.013783
0.147583 0.271854 0.013571
0.189965 0.272802 0.013491
0.232904 0.274288 0.013386
0.276385 0.276257 0.012953
0.320402 0.278659 0.011756
0.364868 0.281413 0.009389
0.409147 0.283937 0.006299
0.451552 0.284531 0.005064
0.490792 0.281724 0.008037
0.527939 0.276566 0.011718
0.565061 0.271370 0.013094
0.606468 0.270126 0.014820
0.652670 0.272892 0.018771
0.698398 0.275425 0.022153
0.741777 0.276687 0.023832
0.783912 0.277391 0.024700
0.825902 0.278076 0.025550
0.867961 0.278806 0.026477
0.910013 0.279502 0.027362
0.951991 0.280091 0.028111
0.993877 0.280538 0.028688
0.000000 0.313853 0.015306
0.022866 0.313264 0.014627
0.063822 0.312803 0.013981
0.105054 0.312644 0.013453
0.146761 0.312990 0.013114
0.189092 0.313989 0.012945
0.232103 0.315664 0.012771
0.275821 0.317946 0.012211
0.320388 0.320846 0.010622
0.366054 0.324604 0.007149
0.412277 0.328921 0.002129
0.455155 0.330009 0.000174
0.493304 0.326065 0.004391
0.529947 0.320287 0.010125
0.567609 0.315540 0.013093
0.608014 0.313503 0.014874
0.650825 0.313711 0.016892
0.694243 0.314595 0.018819
0.737891 0.315888 0.020738
0.781450 0.317311 0.022617
0.824577 0.318551 0.024256
0.867250 0.319568 0.025583
0.909585 0.320408 0.026630
0.951693 0.321092 0.027454
0.993652 0.321627 0.028101
0.000000 0.355711 0.015671
0.022814 0.354984 0.014847
0.063549 0.354349 0.014023
0.104534 0.354013 0.013310
0.146013 0.354244 0.012820
0.188178 0.355266 0.012576
0.231087 0.357124 0.012436
0.274741 0.359639 0.012025
0.319345 0.362621 0.010672
0.365390 0.366365 0.007389
0.412690 0.371229 0.002087
0.455762 0.372391 0.000655
0.493316 0.367800 0.005299
0.530938 0.362941 0.010573
0.569580 0.359106 0.013762
0.609446 0.356610 0.015328
0.650221 0.355132 0.016164
0.692204 0.354849 0.017176
0.735977 0.356153 0.019191
0.780300 0.358002 0.021635
0.824017 0.359537 0.023717
0.866991 0.360703 0.025242
0.909447 0.361624 0.026332
0.951601 0.362366 0.027154
0.993580 0.362952 0.027805
0.000000 0.397804 0.016267
0.023047 0.396958 0.015297
0.063563 0.396149 0.014275
0.104267 0.395611 0.013341
0.145440 0.395687 0.012660
0.187318 0.396731 0.012339
0.229920 0.398902 0.012327
0.273063 0.401852 0.012316
0.316897 0.404679 0.011759
0.362088 0.406986 0.010003
