luts/custom-lut-seed-7727-samples-62-495f60cd.cube
TITLE "custom-lut-seed-7727"
DOMAIN_MIN 0.0 0.0 0.0
DOMAIN_MAX 1.0 1.0 1.0
LUT_3D_SIZE 9
0.000000 0.000000 0.000000
0.114142 0.000000 0.000000
0.236648 0.000000 0.000000
0.362451 0.000000 0.000000
0.488594 0.000000 0.000000
0.616520 0.000000 0.000000
0.744372 0.000000 0.000000
0.871387 0.000000 0.000000
1.000000 0.000000 0.000000
0.000000 0.111741 0.000000
0.110576 0.109171 0.000000
0.235564 0.109511 0.000000
0.362132 0.112315 0.000000
0.487796 0.115433 0.000000
0.619675 0.114714 0.000000
0.752460 0.117244 0.000000
0.871671 0.117876 0.000000
0.996632 0.119175 0.000000
0.000000 0.232057 0.000000
0.107898 0.231751 0.000000
0.234517 0.233898 0.000000
0.363404 0.238063 0.000000
0.488914 0.237989 0.000000
0.615081 0.234959 0.000000
0.749684 0.239635 0.000000
0.869314 0.238682 0.000000
0.994287 0.239813 0.000000
0.000000 0.356711 0.000000
0.106456 0.355901 0.000000
0.232760 0.358743 0.000000
0.364305 0.365304 0.000000
0.491536 0.365811 0.000000
0.611832 0.358755 0.000000
0.738541 0.358557 0.000000
0.867077 0.361274 0.000000
0.993462 0.363080 0.000000
0.000000 0.483302 0.000000
0.107189 0.481944 0.000000
0.230997 0.485621 0.000000
0.356407 0.491806 0.000000
0.488734 0.488393 0.000000
0.614205 0.485907 0.000000
0.740167 0.485176 0.000000
0.867582 0.486668 0.000000
0.993683 0.488062 0.000000
0.000000 0.611392 0.000000
0.112428 0.611202 0.000000
0.238033 0.613551 0.000000
0.362947 0.614315 0.000000
0.491234 0.613759 0.000000
0.617705 0.613246 0.000000
0.743290 0.612915 0.000000
0.868984 0.613319 0.000000
0.994392 0.613946 0.000000
0.000000 0.739877 0.000000
0.118376 0.740536 0.000000
0.246034 0.743340 0.000000
0.371600 0.740970 0.000000
0.497333 0.740115 0.000000
0.621512 0.739290 0.000000
0.745754 0.739069 0.000000
0.870502 0.739639 0.000000
0.995403 0.740183 0.000000
0.000000 0.868215 0.000000
0.121595 0.867044 0.000000
0.250740 0.867096 0.000000
0.383341 0.868339 0.000000
0.507433 0.866902 0.000000
0.625812 0.863924 0.000000
0.747803 0.863621 0.000000
0.871923 0.865702 0.000000
0.997070 0.867973 0.000000
0.000000 1.000000 0.000000
0.123160 0.993077 0.000000
0.254916 0.992292 0.000000
0.395321 0.994559 0.000000
0.515761 0.992618 0.000000
0.628442 0.988392 0.000000
0.748988 0.988135 0.000000
0.872957 0.992227 0.000000
1.000000 1.000000 0.000000
0.000000 0.000000 0.103555
0.108528 0.000000 0.099997
0.234513 0.000000 0.101183
0.361562 0.000000 0.105594
0.487760 0.000000 0.110793
0.615513 0.000000 0.110971
0.743282 0.000000 0.112682
0.870467 0.000000 0.116527
0.996321 0.000000 0.118256
0.000000 0.104284 0.096979
0.105197 0.103512 0.096061
0.232976 0.106744 0.098867
0.361033 0.111541 0.103972
0.485534 0.120059 0.117607
0.614995 0.113046 0.109793
0.745228 0.114575 0.112728
0.870567 0.117111 0.115727
0.995972 0.118163 0.117112
0.000000 0.227863 0.095351
0.102891 0.226625 0.094430
0.230844 0.230037 0.096034
0.362044 0.236605 0.096644
0.486802 0.236202 0.097204
0.596535 0.220137 0.092873
0.739865 0.234158 0.106404
0.867884 0.237400 0.110190
0.994116 0.239294 0.112704
0.000000 0.353725 0.097402
0.099332 0.348750 0.093460
0.226251 0.351560 0.093424
0.362382 0.362823 0.092308
0.491146 0.365327 0.090569
0.605332 0.352781 0.096507
0.728681 0.349590 0.096756
0.868042 0.359827 0.109448
0.994004 0.362844 0.111442
0.000000 0.482391 0.102033
0.099510 0.474146 0.094161
0.217771 0.469643 0.087730
0.355857 0.487008 0.097170
0.488430 0.487490 0.101004
0.613413 0.484818 0.103035
0.740272 0.483604 0.104989
0.869594 0.485838 0.111236
0.994564 0.488189 0.112028
0.000000 0.612030 0.106982
0.108900 0.607727 0.100311
0.232050 0.606983 0.095350
0.361775 0.612006 0.101900
0.492257 0.614582 0.107934
0.619998 0.615709 0.111224
0.744686 0.614085 0.111040
0.870057 0.614048 0.112571
0.995109 0.614503 0.113533
0.000000 0.742379 0.113334
0.119577 0.742017 0.109108
0.245714 0.743007 0.099619
0.371899 0.740906 0.108956
0.498355 0.741050 0.112254
0.623090 0.740891 0.113667
0.746840 0.740264 0.114482
0.871534 0.741368 0.116895
0.995931 0.740922 0.115928
0.000000 0.870398 0.118385
0.121576 0.868348 0.115498
0.251471 0.867398 0.112207
0.381352 0.870712 0.121765
0.511729 0.868009 0.116091
0.626346 0.860551 0.112359
0.748351 0.861353 0.113741
0.872309 0.865971 0.117400
0.996705 0.866873 0.117324
0.000000 0.992454 0.116297
0.118717 0.988965 0.112389
0.256330 0.992127 0.114155
0.429650 1.000000 0.118430
0.530371 0.994734 0.116051
0.628032 0.980669 0.110837
0.749253 0.982435 0.111967
0.872620 0.989800 0.115953
0.997409 0.993004 0.118246
0.000000 0.000000 0.212913
0.100327 0.000000 0.214330
0.232125 0.000000 0.222550
0.361165 0.000000 0.229017
0.488341 0.000000 0.233092
0.615413 0.000000 0.235543
0.742293 0.000000 0.237643
0.868288 0.000000 0.238922
0.993936 0.000000 0.239769
0.000000 0.090052 0.205675
0.090680 0.088819 0.206319
0.230037 0.103086 0.220358
0.360681 0.109318 0.228194
0.487830 0.111758 0.232201
0.615504 0.113375 0.235656
0.745769 0.119060 0.243044
0.868391 0.114711 0.238310
0.994056 0.115183 0.239198
0.000000 0.222580 0.212493
0.097902 0.221116 0.213394
0.227553 0.226126 0.219264
0.360701 0.234459 0.227680
0.487653 0.235932 0.229689
0.609896 0.232172 0.228342
0.736170 0.232662 0.229862
0.867667 0.237293 0.235005
0.994144 0.238943 0.237773
0.000000 0.352485 0.220652
0.090902 0.340310 0.212611
0.218394 0.342763 0.213659
0.355674 0.354677 0.222507
0.487207 0.360161 0.227470
0.610365 0.356599 0.225117
0.745933 0.361885 0.215748
0.870505 0.361824 0.233516
0.995043 0.363639 0.237441
0.000000 0.490429 0.236989
0.101885 0.476096 0.222813
0.216504 0.466049 0.212560
0.355302 0.479456 0.223449
0.489025 0.486859 0.231060
0.617334 0.488087 0.231788
0.748231 0.489541 0.226197
0.872220 0.488458 0.236484
0.995883 0.489538 0.238545
0.000000 0.619222 0.241677
0.111591 0.610175 0.231664
0.229863 0.603386 0.223757
0.362106 0.610127 0.230453
0.495807 0.618615 0.240784
0.635710 0.633674 0.257031
0.747007 0.616849 0.239086
0.871430 0.615827 0.239641
0.995985 0.615643 0.240151
0.000000 0.745264 0.243478
0.121996 0.744505 0.242122
0.242408 0.738638 0.234692
0.369102 0.738962 0.235630
0.497584 0.742305 0.240195
0.626390 0.746296 0.245217
0.747559 0.742262 0.242602
0.873476 0.746264 0.250898
0.996402 0.741959 0.242940
0.006317 0.879555 0.254358
0.136907 0.885690 0.260597
0.248225 0.866546 0.240279
0.378379 0.866334 0.239501
0.502701 0.865161 0.239185
0.624226 0.860704 0.238071
0.747791 0.862566 0.240555
0.872978 0.869000 0.247871
0.996519 0.866833 0.243184
0.000000 0.990979 0.241229
0.113737 0.985328 0.235701
0.250039 0.990534 0.240233
0.386138 0.992223 0.240487
0.508259 0.989711 0.239242
0.625514 0.980141 0.235884
0.748353 0.982522 0.237341
0.871943 0.989102 0.240845
0.996281 0.990704 0.241447
0.000000 0.000000 0.327630
0.098896 0.000000 0.331982
0.231980 0.000000 0.345259
0.361632 0.000000 0.354056
0.488914 0.000000 0.358390
0.615398 0.000000 0.360923
0.741534 0.000000 0.363083
0.867212 0.000000 0.364407
0.993040 0.000000 0.364714
0.000000 0.084631 0.311995
0.087325 0.083864 0.318665
0.230122 0.102068 0.342541
0.361545 0.109075 0.354539
0.488905 0.111310 0.358702
0.615354 0.112342 0.360776
0.742324 0.114498 0.363722
0.867978 0.115419 0.365110
0.993731 0.115140 0.365101
0.000000 0.218882 0.320953
0.098833 0.219947 0.328357
0.229168 0.226749 0.344214
0.364551 0.238056 0.360217
0.490287 0.238078 0.360801
0.614394 0.235397 0.358424
0.742057 0.235872 0.359793
0.869737 0.238690 0.363448
0.994994 0.239558 0.364791
0.000000 0.352502 0.341891
0.100923 0.348784 0.341269
0.215089 0.338833 0.335307
0.355977 0.354419 0.351438
0.488641 0.361171 0.358428
0.615033 0.360280 0.357086
0.744872 0.361349 0.357367
0.872837 0.364779 0.363474
0.996502 0.365001 0.365145
0.000000 0.487303 0.357829
0.106885 0.480308 0.351399
0.222589 0.471220 0.343252
0.356008 0.479282 0.351471
0.488205 0.485793 0.358282
0.616606 0.487564 0.359493
0.749274 0.493684 0.364805
0.879511 0.499565 0.373193
0.997628 0.492015 0.366880
0.000000 0.616023 0.363993
0.113208 0.611310 0.359534
0.234801 0.607727 0.355746
0.363007 0.611043 0.359281
0.492941 0.616772 0.365977
0.620210 0.617284 0.365823
0.745910 0.616518 0.364978
0.872762 0.618225 0.367599
0.996897 0.617308 0.367292
0.000000 0.741280 0.367352
0.118023 0.739975 0.367943
0.240933 0.737499 0.363890
0.366224 0.737845 0.362303
0.491971 0.738494 0.362651
0.619700 0.740667 0.365019
0.745183 0.740620 0.365570
0.871185 0.741985 0.367851
0.996087 0.741719 0.367300
0.000000 0.868675 0.372949
0.121995 0.867818 0.377422
0.244896 0.864560 0.370992
0.369770 0.863491 0.364654
0.494746 0.863004 0.363025
0.619963 0.862911 0.363409
0.745454 0.864086 0.365173
0.871008 0.866096 0.367577
0.995783 0.866152 0.367052
0.000000 0.991329 0.370419
0.120153 0.990468 0.372634
0.246248 0.989697 0.370073
0.372713 0.989175 0.365850
0.497541 0.988218 0.363904
0.621525 0.987009 0.363375
0.745994 0.987675 0.364255
0.870762 0.989498 0.365662
0.995537 0.990327 0.366040
0.000000 0.000000 0.447087
0.104045 0.000000 0.455669
0.234293 0.000000 0.471900
0.363367 0.000000 0.481586
0.490009 0.000000 0.485427
0.615572 0.000000 0.487071
0.740785 0.000000 0.489437
0.865888 0.000000 0.491428
0.992678 0.000000 0.490815
0.000000 0.079635 0.377302
0.098337 0.088973 0.418256
0.233078 0.104095 0.468789
0.363545 0.110219 0.483081
0.489829 0.111543 0.486585
0.614423 0.111073 0.486385
0.740504 0.115373 0.490950
0.861887 0.121445 0.496873
0.993666 0.116117 0.492273
0.000000 0.213662 0.412094
0.101443 0.219000 0.434855
0.233220 0.229816 0.471745
0.363657 0.236049 0.485342
0.490556 0.238036 0.488976
0.611939 0.233099 0.483699
0.744037 0.233890 0.486292
0.874541 0.245416 0.496958
0.996307 0.240259 0.492902
0.000000 0.352417 0.462619
0.105703 0.352459 0.466870
0.231907 0.354491 0.475135
0.362553 0.360542 0.484851
0.493664 0.367153 0.492380
0.614829 0.359952 0.485328
0.746048 0.349779 0.479655
0.873910 0.361382 0.490589
0.997849 0.364860 0.493428
0.000000 0.482890 0.476898
0.108441 0.481309 0.476917
0.232595 0.480631 0.478125
0.359868 0.482936 0.481806
0.485503 0.483303 0.482781
0.611633 0.483127 0.482776
0.745693 0.490268 0.490594
0.877848 0.497811 0.498947
0.998098 0.492692 0.494340
0.000000 0.611313 0.484588
0.112017 0.609947 0.484469
0.236234 0.609249 0.483852
0.364402 0.613201 0.487832
0.459001 0.583137 0.457918
0.604212 0.602501 0.477244
0.741692 0.612949 0.487840
0.872730 0.619927 0.495203
0.997799 0.619863 0.495363
0.000000 0.738534 0.492897
0.116329 0.737750 0.499143
0.239809 0.736740 0.492969
0.364131 0.737077 0.487911
0.481275 0.729020 0.478989
0.610785 0.732789 0.482693
0.741871 0.738196 0.488327
0.870114 0.741337 0.491754
0.995842 0.741915 0.492460
0.000000 0.864798 0.501787
0.123436 0.863476 0.548570
0.243947 0.863106 0.512117
0.365614 0.861659 0.490338
0.489425 0.860406 0.486228
0.615684 0.861390 0.486863
0.743198 0.863859 0.489433
0.869834 0.865644 0.491316
0.995239 0.866052 0.491674
0.000000 0.990090 0.499110
0.119892 0.989449 0.510039
0.244118 0.988823 0.502154
0.368101 0.987983 0.491971
0.492764 0.987392 0.488819
0.618157 0.987689 0.488661
0.744057 0.988847 0.489756
0.869762 0.989993 0.490796
0.994978 0.990490 0.491119
0.000000 0.000000 0.584628
0.107276 0.000000 0.591686
0.237543 0.000000 0.603498
0.366773 0.000000 0.612004
0.492353 0.000000 0.613776
0.616791 0.000000 0.613782
0.741514 0.000000 0.614896
0.866839 0.000000 0.616390
0.993156 0.000000 0.616354
0.000000 0.096754 0.568626
0.098615 0.097907 0.595295
0.237217 0.108361 0.604041
0.369290 0.114778 0.617842
0.492891 0.113487 0.616988
0.614559 0.110479 0.612502
0.740955 0.113442 0.615204
0.867007 0.116960 0.618796
0.994490 0.115891 0.618073
0.000000 0.223892 0.573790
0.106106 0.226608 0.585908
0.237526 0.233993 0.605759
0.368470 0.240328 0.622239
0.493641 0.241489 0.627155
0.604011 0.227155 0.603342
0.742129 0.236181 0.613874
0.874913 0.241915 0.622763
0.998175 0.240525 0.620964
0.000000 0.354607 0.592722
0.108403 0.355396 0.597364
0.235661 0.358098 0.605917
0.364715 0.362570 0.616080
0.492552 0.365896 0.620126
0.611269 0.357814 0.609569
0.739099 0.357028 0.610088
0.882980 0.365415 0.631628
1.000000 0.365431 0.623205
0.000000 0.483140 0.602317
0.109307 0.482518 0.603537
0.234095 0.482324 0.605627
0.359841 0.482977 0.608090
0.484557 0.482447 0.608185
0.605659 0.477852 0.603564
0.726150 0.472591 0.598811
0.870676 0.488910 0.617687
0.997553 0.491181 0.619802
0.000000 0.611183 0.608790
0.111321 0.610348 0.609164
0.235072 0.608870 0.608319
0.357575 0.606086 0.605899
0.475585 0.599007 0.599070
0.605064 0.603035 0.603283
0.738196 0.609897 0.610597
0.869495 0.615662 0.616838
0.996113 0.616988 0.618364
0.000000 0.738787 0.615909
0.114493 0.738323 0.619076
0.237706 0.736416 0.614986
0.359091 0.732556 0.608455
0.478644 0.726904 0.602252
0.608573 0.731292 0.606701
0.743179 0.740624 0.616136
0.871574 0.743724 0.619364
0.995664 0.742076 0.617895
0.000000 0.865099 0.622454
0.117908 0.864550 0.634183
0.240843 0.863228 0.624749
0.362696 0.860501 0.613450
0.485835 0.858357 0.609570
0.613501 0.860700 0.611661
0.744007 0.866231 0.617014
0.871142 0.868222 0.618921
0.995394 0.866914 0.617623
0.000000 0.990449 0.621822
0.117971 0.990011 0.627360
0.242039 0.989083 0.622936
0.365680 0.987720 0.616270
0.490268 0.986996 0.613912
0.616420 0.987935 0.614439
0.743449 0.989951 0.616132
0.869691 0.991175 0.617087
0.994876 0.991198 0.616924
0.000000 0.000000 0.723237
0.111614 0.000000 0.727009
0.240988 0.000000 0.734951
0.370242 0.000000 0.741519
0.495279 0.000000 0.741236
0.620616 0.000000 0.743214
0.743115 0.000000 0.740512
0.868403 0.000000 0.741250
0.994134 0.000000 0.741864
0.000000 0.105479 0.720109
0.110341 0.106977 0.725624
0.243177 0.113946 0.739425
0.377047 0.123838 0.753680
0.498943 0.118576 0.743511
0.617694 0.110161 0.739234
0.742341 0.112006 0.739889
0.869321 0.115067 0.742437
0.995246 0.116001 0.743170
0.000000 0.230666 0.720676
0.110323 0.232144 0.726098
0.241008 0.237341 0.737915
0.374970 0.249193 0.750394
0.493689 0.240508 0.744171
0.610119 0.231948 0.733167
0.741527 0.236695 0.739098
0.873488 0.242300 0.746481
0.997745 0.241701 0.745701
0.000000 0.357080 0.724781
0.108942 0.356756 0.727254
0.233949 0.356789 0.731066
0.361641 0.359421 0.737089
0.486112 0.358885 0.737303
0.606483 0.353774 0.730232
0.738411 0.358770 0.736211
0.877542 0.370653 0.750884
0.999235 0.369014 0.747809
0.000000 0.484275 0.729056
0.107932 0.482266 0.728710
0.228346 0.477507 0.726187
0.353941 0.477596 0.727733
0.482440 0.480439 0.731329
0.606522 0.478884 0.729870
0.732272 0.478736 0.730297
0.868966 0.488553 0.741707
0.996503 0.491075 0.744213
0.000000 0.613181 0.733636
0.110385 0.612585 0.733188
0.232519 0.608530 0.730969
0.355563 0.604959 0.729266
0.478127 0.601725 0.726947
0.607221 0.605060 0.730727
0.738736 0.610854 0.736897
0.868583 0.615005 0.741464
0.994992 0.615849 0.742518
0.000000 0.742680 0.738553
0.114098 0.745888 0.739383
0.236757 0.740942 0.736859
0.356841 0.732068 0.731430
0.458776 0.708526 0.708660
0.605516 0.728964 0.729865
0.748463 0.747071 0.747710
0.875149 0.748471 0.749095
0.995624 0.742484 0.743482
0.000000 0.868809 0.742134
0.115985 0.871110 0.743498
0.239275 0.867637 0.741163
0.361196 0.861312 0.736965
0.483278 0.857050 0.734034
0.612968 0.861171 0.738506
0.746615 0.870127 0.746249
0.873196 0.871556 0.747288
0.995738 0.867957 0.743812
0.000000 0.992770 0.743159
0.116769 0.992976 0.744164
0.240776 0.991275 0.742749
0.364675 0.988789 0.740850
0.489645 0.987847 0.741164
0.616306 0.989070 0.742570
0.743815 0.991430 0.743575
0.870140 0.992598 0.743865
0.995118 0.992222 0.743119
0.000000 0.000000 0.858969
0.113532 0.000000 0.858066
0.241327 0.000000 0.861070
0.369466 0.000000 0.863937
0.495167 0.000000 0.864234
0.620982 0.000000 0.868075
0.743802 0.000000 0.865772
0.869823 0.000000 0.867582
0.995946 0.000000 0.869132
0.000000 0.108903 0.855394
0.110600 0.108756 0.856591
0.241978 0.113319 0.862787
0.373458 0.119612 0.866345
0.497140 0.124328 0.849944
0.618069 0.110485 0.862548
0.742827 0.112403 0.864784
0.870975 0.118089 0.869311
0.996359 0.118570 0.869692
0.000000 0.233392 0.853608
0.111008 0.233736 0.855772
0.239144 0.236118 0.860640
0.368952 0.240837 0.864535
0.490706 0.240489 0.854992
0.608414 0.230779 0.854577
0.740260 0.236174 0.862476
0.869723 0.240552 0.867545
0.995842 0.241681 0.868728
0.000000 0.358629 0.853757
0.108269 0.356818 0.853749
0.228744 0.352280 0.851303
0.350257 0.348749 0.848649
0.481779 0.354855 0.854600
0.605114 0.352832 0.853118
0.738431 0.359668 0.861080
0.868883 0.364185 0.866613
0.995526 0.365709 0.868244
0.000000 0.485530 0.855543
0.106258 0.481755 0.853097
0.215385 0.465357 0.839791
0.333411 0.458068 0.832834
0.479490 0.477870 0.853007
0.609117 0.481639 0.857319
0.737967 0.484600 0.860916
0.867350 0.488170 0.865144
0.994443 0.489969 0.867082
0.000000 0.616278 0.859221
0.110657 0.617937 0.858651
0.230750 0.609834 0.854395
0.353962 0.604485 0.852884
0.480774 0.604703 0.854827
0.609620 0.607633 0.858536
0.739410 0.611761 0.862976
0.867690 0.614487 0.865886
0.994013 0.615334 0.866809
0.000000 0.749593 0.863798
0.120246 0.780392 0.869849
0.240145 0.759247 0.864748
0.358909 0.736541 0.858902
0.480640 0.730161 0.856469
0.610775 0.734332 0.861688
0.743193 0.741487 0.867999
0.870498 0.743488 0.869560
0.994786 0.741931 0.868033
0.000000 0.874290 0.866738
0.118332 0.887514 0.868315
0.240907 0.878884 0.866306
0.362657 0.865173 0.864521
0.488216 0.862830 0.870093
0.616293 0.865169 0.874353
0.745106 0.868793 0.871428
0.871518 0.870012 0.871166
0.995586 0.868319 0.869284
0.000000 0.996451 0.868905
0.117636 0.997071 0.867837
0.240983 0.994586 0.866820
0.365234 0.990993 0.867982
0.492062 0.991355 0.876366
0.618687 0.992482 0.879571
0.743996 0.992198 0.871591
0.870276 0.993335 0.870056
0.996208 0.994345 0.870183
0.000000 0.000000 1.000000
0.115328 0.000000 0.986724
0.240507 0.000000 0.985557
0.367184 0.000000 0.986495
0.492894 0.000000 0.987074
0.618008 0.000000 0.988486
0.743510 0.000000 0.990211
0.870778 0.000000 0.993831
1.000000 0.000000 1.000000
0.000000 0.111329 0.984473
0.110486 0.109228 0.982846
0.239634 0.111936 0.985045
0.367073 0.114162 0.985676
0.492387 0.114309 0.984647
0.616785 0.112249 0.986648
0.742888 0.113794 0.989697
0.871994 0.120215 0.995722
0.997048 0.120207 0.995737
0.000000 0.234755 0.981575
0.111134 0.234390 0.982054
0.237294 0.235037 0.983209
0.363757 0.236464 0.983709
0.488980 0.236781 0.982983
0.613661 0.235583 0.984353
0.740953 0.237398 0.987915
0.869079 0.240915 0.991883
0.995052 0.241878 0.992954
0.000000 0.359848 0.980965
0.109337 0.358272 0.980414
0.231816 0.355529 0.978776
0.356037 0.354468 0.978197
0.484222 0.357200 0.981084
0.611281 0.358646 0.983381
0.739358 0.361058 0.986736
0.867245 0.363545 0.989800
0.993756 0.364889 0.991310
0.000000 0.486648 0.981922
0.108359 0.484289 0.980296
0.228583 0.478827 0.976469
0.351824 0.476209 0.975062
0.482241 0.480718 0.980314
0.611017 0.483705 0.984005
0.738986 0.486009 0.986891
0.866580 0.488097 0.989365
0.993156 0.489392 0.990773
0.000000 0.616876 0.984752
0.111447 0.618296 0.984336
0.233422 0.612879 0.981862
0.357036 0.607985 0.980863
0.483970 0.608116 0.983102
0.611805 0.609965 0.985942
0.739679 0.612199 0.988448
0.866905 0.613954 0.990228
0.993156 0.614851 0.991076
0.000000 0.748760 0.988622
0.117064 0.762713 0.991089
0.239369 0.753116 0.988731
0.361326 0.739382 0.986583
0.486741 0.736539 0.988699
0.613890 0.737548 0.991122
0.741403 0.739468 0.991846
0.868182 0.740854 0.992356
0.993904 0.741200 0.992335
0.000000 0.874115 0.992854
0.117951 0.881554 0.992393
0.240892 0.876594 0.991016
0.364272 0.867153 0.991889
0.491894 0.866838 1.000000
0.618882 0.868105 1.000000
0.743166 0.866588 0.996429
0.869563 0.867732 0.994567
0.995810 0.869029 0.994927
0.000000 1.000000 1.000000
0.119097 0.997769 0.993761
0.241353 0.995209 0.991884
0.365973 0.992203 0.994563
0.493885 0.993580 1.000000
0.620412 0.994671 1.000000
0.743819 0.992237 0.998118
0.870654 0.994153 0.995906
1.000000 1.000000 1.000000
