luts/Warm Vintage.cube
# Warm Vintage LUT
LUT_3D_SIZE 5
0.065447 0.044496 0.058221
0.314068 0.044496 0.058221
0.544364 0.044496 0.058221
0.766211 0.044496 0.058221
0.982523 0.044496 0.058221
0.065447 0.281077 0.058221
0.314068 0.281077 0.058221
0.544364 0.281077 0.058221
0.766211 0.281077 0.058221
0.982523 0.281077 0.058221
0.065447 0.510609 0.058221
0.314068 0.510609 0.058221
0.544364 0.510609 0.058221
0.766211 0.510609 0.058221
0.982523 0.510609 0.058221
0.065447 0.736875 0.058221
0.314068 0.736875 0.058221
0.544364 0.736875 0.058221
0.766211 0.736875 0.058221
0.982523 0.736875 0.058221
0.065447 0.960978 0.058221
0.314068 0.960978 0.058221
0.544364 0.960978 0.058221
0.766211 0.960978 0.058221
0.982523 0.960978 0.058221
0.065447 0.044496 0.258965
0.314068 0.044496 0.258965
0.544364 0.044496 0.258965
0.766211 0.044496 0.258965
0.982523 0.044496 0.258965
0.065447 0.281077 0.258965
0.314068 0.281077 0.258965
0.544364 0.281077 0.258965
0.766211 0.281077 0.258965
0.982523 0.281077 0.258965
0.065447 0.510609 0.258965
0.314068 0.510609 0.258965
0.544364 0.510609 0.258965
0.766211 0.510609 0.258965
0.982523 0.510609 0.258965
0.065447 0.736875 0.258965
0.314068 0.736875 0.258965
0.544364 0.736875 0.258965
0.766211 0.736875 0.258965
0.982523 0.736875 0.258965
0.065447 0.960978 0.258965
0.314068 0.960978 0.258965
0.544364 0.960978 0.258965
0.766211 0.960978 0.258965
0.982523 0.960978 0.258965
0.065447 0.044496 0.468460
0.314068 0.044496 0.468460
0.544364 0.044496 0.468460
0.766211 0.044496 0.468460
0.982523 0.044496 0.468460
0.065447 0.281077 0.468460
0.314068 0.281077 0.468460
0.544364 0.281077 0.468460
0.766211 0.281077 0.468460
0.982523 0.281077 0.468460
0.065447 0.510609 0.468460
0.314068 0.510609 0.468460
0.544364 0.510609 0.468460
0.766211 0.510609 0.468460
0.982523 0.510609 0.468460
0.065447 0.736875 0.468460
0.314068 0.736875 0.468460
0.544364 0.736875 0.468460
0.766211 0.736875 0.468460
0.982523 0.736875 0.468460
0.065447 0.960978 0.468460
0.314068 0.960978 0.468460
0.544364 0.960978 0.468460
0.766211 0.960978 0.468460
0.982523 0.960978 0.468460
0.065447 0.044496 0.682673
0.314068 0.044496 0.682673
0.544364 0.044496 0.682673
0.766211 0.044496 0.682673
0.982523 0.044496 0.682673
0.065447 0.281077 0.682673
0.314068 0.281077 0.682673
0.544364 0.281077 0.682673
0.766211 0.281077 0.682673
0.982523 0.281077 0.682673
0.065447 0.510609 0.682673
0.314068 0.510609 0.682673
0.544364 0.510609 0.682673
0.766211 0.510609 0.682673
0.982523 0.510609 0.682673
0.065447 0.736875 0.682673
0.314068 0.736875 0.682673
0.544364 0.736875 0.682673
0.766211 0.736875 0.682673
0.982523 0.736875 0.682673
0.065447 0.960978 0.682673
0.314068 0.960978 0.682673
0.544364 0.960978 0.682673
0.766211 0.960978 0.682673
0.982523 0.960978 0.682673
0.065447 0.044496 0.900188
0.314068 0.044496 0.900188
0.544364 0.044496 0.900188
0.766211 0.044496 0.900188
0.982523 0.044496 0.900188
0.065447 0.281077 0.900188
0.314068 0.281077 0.900188
0.544364 0.281077 0.900188
0.766211 0.281077 0.900188
0.982523 0.281077 0.900188
0.065447 0.510609 0.900188
0.314068 0.510609 0.900188
0.544364 0.510609 0.900188
0.766211 0.510609 0.900188
0.982523 0.510609 0.900188
0.065447 0.736875 0.900188
0.314068 0.736875 0.900188
0.544364 0.736875 0.900188
0.766211 0.736875 0.900188
0.982523 0.736875 0.900188
0.065447 0.960978 0.900188
0.314068 0.960978 0.900188
0.544364 0.960978 0.900188
0.766211 0.960978 0.900188
0.982523 0.960978 0.900188
