luts/Warm Vintage.cube
# Warm Vintage LUT
LUT_3D_SIZE 9
0.065447 0.044496 0.058221
0.193563 0.044496 0.058221
0.314068 0.044496 0.058221
0.430573 0.044496 0.058221
0.544364 0.044496 0.058221
0.656107 0.044496 0.058221
0.766211 0.044496 0.058221
0.874950 0.044496 0.058221
0.982523 0.044496 0.058221
0.065447 0.164260 0.058221
0.193563 0.164260 0.058221
0.314068 0.164260 0.058221
0.430573 0.164260 0.058221
0.544364 0.164260 0.058221
0.656107 0.164260 0.058221
0.766211 0.164260 0.058221
0.874950 0.164260 0.058221
0.982523 0.164260 0.058221
0.065447 0.281077 0.058221
0.193563 0.281077 0.058221
0.314068 0.281077 0.058221
0.430573 0.281077 0.058221
0.544364 0.281077 0.058221
0.656107 0.281077 0.058221
0.766211 0.281077 0.058221
0.874950 0.281077 0.058221
0.982523 0.281077 0.058221
0.065447 0.396365 0.058221
0.193563 0.396365 0.058221
0.314068 0.396365 0.058221
0.430573 0.396365 0.058221
0.544364 0.396365 0.058221
0.656107 0.396365 0.058221
0.766211 0.396365 0.058221
0.874950 0.396365 0.058221
0.982523 0.396365 0.058221
0.065447 0.510609 0.058221
0.193563 0.510609 0.058221
0.314068 0.510609 0.058221
0.430573 0.510609 0.058221
0.544364 0.510609 0.058221
0.656107 0.510609 0.058221
0.766211 0.510609 0.058221
0.874950 0.510609 0.058221
0.982523 0.510609 0.058221
0.065447 0.624061 0.058221
0.193563 0.624061 0.058221
0.314068 0.624061 0.058221
0.430573 0.624061 0.058221
0.544364 0.624061 0.058221
0.656107 0.624061 0.058221
0.766211 0.624061 0.058221
0.874950 0.624061 0.058221
0.982523 0.624061 0.058221
0.065447 0.736875 0.058221
0.193563 0.736875 0.058221
0.314068 0.736875 0.058221
0.430573 0.736875 0.058221
0.544364 0.736875 0.058221
0.656107 0.736875 0.058221
0.766211 0.736875 0.058221
0.874950 0.736875 0.058221
0.982523 0.736875 0.058221
0.065447 0.849156 0.058221
0.193563 0.849156 0.058221
0.314068 0.849156 0.058221
0.430573 0.849156 0.058221
0.544364 0.849156 0.058221
0.656107 0.849156 0.058221
0.766211 0.849156 0.058221
0.874950 0.849156 0.058221
0.982523 0.849156 0.058221
0.065447 0.960978 0.058221
0.193563 0.960978 0.058221
0.314068 0.960978 0.058221
0.430573 0.960978 0.058221
0.544364 0.960978 0.058221
0.656107 0.960978 0.058221
0.766211 0.960978 0.058221
0.874950 0.960978 0.058221
0.982523 0.960978 0.058221
0.065447 0.044496 0.156949
0.193563 0.044496 0.156949
0.314068 0.044496 0.156949
0.430573 0.044496 0.156949
0.544364 0.044496 0.156949
0.656107 0.044496 0.156949
0.766211 0.044496 0.156949
0.874950 0.044496 0.156949
0.982523 0.044496 0.156949
0.065447 0.164260 0.156949
0.193563 0.164260 0.156949
0.314068 0.164260 0.156949
0.430573 0.164260 0.156949
0.544364 0.164260 0.156949
0.656107 0.164260 0.156949
0.766211 0.164260 0.156949
0.874950 0.164260 0.156949
0.982523 0.164260 0.156949
0.065447 0.281077 0.156949
0.193563 0.281077 0.156949
0.314068 0.281077 0.156949
0.430573 0.281077 0.156949
0.544364 0.281077 0.156949
0.656107 0.281077 0.156949
0.766211 0.281077 0.156949
0.874950 0.281077 0.156949
0.982523 0.281077 0.156949
0.065447 0.396365 0.156949
0.193563 0.396365 0.156949
0.314068 0.396365 0.156949
0.430573 0.396365 0.156949
0.544364 0.396365 0.156949
0.656107 0.396365 0.156949
0.766211 0.396365 0.156949
0.874950 0.396365 0.156949
0.982523 0.396365 0.156949
0.065447 0.510609 0.156949
0.193563 0.510609 0.156949
0.314068 0.510609 0.156949
0.430573 0.510609 0.156949
0.544364 0.510609 0.156949
0.656107 0.510609 0.156949
0.766211 0.510609 0.156949
0.874950 0.510609 0.156949
0.982523 0.510609 0.156949
0.065447 0.624061 0.156949
0.193563 0.624061 0.156949
0.314068 0.624061 0.156949
0.430573 0.624061 0.156949
0.544364 0.624061 0.156949
0.656107 0.624061 0.156949
0.766211 0.624061 0.156949
0.874950 0.624061 0.156949
0.982523 0.624061 0.156949
0.065447 0.736875 0.156949
0.193563 0.736875 0.156949
0.314068 0.736875 0.156949
0.430573 0.736875 0.156949
0.544364 0.736875 0.156949
0.656107 0.736875 0.156949
0.766211 0.736875 0.156949
0.874950 0.736875 0.156949
0.982523 0.736875 0.156949
0.065447 0.849156 0.156949
0.193563 0.849156 0.156949
0.314068 0.849156 0.156949
0.430573 0.849156 0.156949
0.544364 0.849156 0.156949
0.656107 0.849156 0.156949
0.766211 0.849156 0.156949
0.874950 0.849156 0.156949
0.982523 0.849156 0.156949
0.065447 0.960978 0.156949
0.193563 0.960978 0.156949
0.314068 0.960978 0.156949
0.430573 0.960978 0.156949
0.544364 0.960978 0.156949
0.656107 0.960978 0.156949
0.766211 0.960978 0.156949
0.874950 0.960978 0.156949
0.982523 0.960978 0.156949
0.065447 0.044496 0.258965
0.193563 0.044496 0.258965
0.314068 0.044496 0.258965
0.430573 0.044496 0.258965
0.544364 0.044496 0.258965
0.656107 0.044496 0.258965
0.766211 0.044496 0.258965
0.874950 0.044496 0.258965
0.982523 0.044496 0.258965
0.065447 0.164260 0.258965
0.193563 0.164260 0.258965
0.314068 0.164260 0.258965
0.430573 0.164260 0.258965
0.544364 0.164260 0.258965
0.656107 0.164260 0.258965
0.766211 0.164260 0.258965
0.874950 0.164260 0.258965
0.982523 0.164260 0.258965
0.065447 0.281077 0.258965
0.193563 0.281077 0.258965
0.314068 0.281077 0.258965
0.430573 0.281077 0.258965
0.544364 0.281077 0.258965
0.656107 0.281077 0.258965
0.766211 0.281077 0.258965
0.874950 0.281077 0.258965
0.982523 0.281077 0.258965
0.065447 0.396365 0.258965
0.193563 0.396365 0.258965
0.314068 0.396365 0.258965
0.430573 0.396365 0.258965
0.544364 0.396365 0.258965
0.656107 0.396365 0.258965
0.766211 0.396365 0.258965
0.874950 0.396365 0.258965
0.982523 0.396365 0.258965
0.065447 0.510609 0.258965
0.193563 0.510609 0.258965
0.314068 0.510609 0.258965
0.430573 0.510609 0.258965
0.544364 0.510609 0.258965
0.656107 0.510609 0.258965
0.766211 0.510609 0.258965
0.874950 0.510609 0.258965
0.982523 0.510609 0.258965
0.065447 0.624061 0.258965
0.193563 0.624061 0.258965
0.314068 0.624061 0.258965
0.430573 0.624061 0.258965
0.544364 0.624061 0.258965
0.656107 0.624061 0.258965
0.766211 0.624061 0.258965
0.874950 0.624061 0.258965
0.982523 0.624061 0.258965
0.065447 0.736875 0.258965
0.193563 0.736875 0.258965
0.314068 0.736875 0.258965
0.430573 0.736875 0.258965
0.544364 0.736875 0.258965
0.656107 0.736875 0.258965
0.766211 0.736875 0.258965
0.874950 0.736875 0.258965
0.982523 0.736875 0.258965
0.065447 0.849156 0.258965
0.193563 0.849156 0.258965
0.314068 0.849156 0.258965
0.430573 0.849156 0.258965
0.544364 0.849156 0.258965
0.656107 0.849156 0.258965
0.766211 0.849156 0.258965
0.874950 0.849156 0.258965
0.982523 0.849156 0.258965
0.065447 0.960978 0.258965
0.193563 0.960978 0.258965
0.314068 0.960978 0.258965
0.430573 0.960978 0.258965
0.544364 0.960978 0.258965
0.656107 0.960978 0.258965
0.766211 0.960978 0.258965
0.874950 0.960978 0.258965
0.982523 0.960978 0.258965
0.065447 0.044496 0.362983
0.193563 0.044496 0.362983
0.314068 0.044496 0.362983
0.430573 0.044496 0.362983
0.544364 0.044496 0.362983
0.656107 0.044496 0.362983
0.766211 0.044496 0.362983
0.874950 0.044496 0.362983
0.982523 0.044496 0.362983
0.065447 0.164260 0.362983
0.193563 0.164260 0.362983
0.314068 0.164260 0.362983
0.430573 0.164260 0.362983
0.544364 0.164260 0.362983
0.656107 0.164260 0.362983
0.766211 0.164260 0.362983
0.874950 0.164260 0.362983
0.982523 0.164260 0.362983
0.065447 0.281077 0.362983
0.193563 0.281077 0.362983
0.314068 0.281077 0.362983
0.430573 0.281077 0.362983
0.544364 0.281077 0.362983
0.656107 0.281077 0.362983
0.766211 0.281077 0.362983
0.874950 0.281077 0.362983
0.982523 0.281077 0.362983
0.065447 0.396365 0.362983
0.193563 0.396365 0.362983
0.314068 0.396365 0.362983
0.430573 0.396365 0.362983
0.544364 0.396365 0.362983
0.656107 0.396365 0.362983
0.766211 0.396365 0.362983
0.874950 0.396365 0.362983
0.982523 0.396365 0.362983
0.065447 0.510609 0.362983
0.193563 0.510609 0.362983
0.314068 0.510609 0.362983
0.430573 0.510609 0.362983
0.544364 0.510609 0.362983
0.656107 0.510609 0.362983
0.766211 0.510609 0.362983
0.874950 0.510609 0.362983
0.982523 0.510609 0.362983
0.065447 0.624061 0.362983
0.193563 0.624061 0.362983
0.314068 0.624061 0.362983
0.430573 0.624061 0.362983
0.544364 0.624061 0.362983
0.656107 0.624061 0.362983
0.766211 0.624061 0.362983
0.874950 0.624061 0.362983
0.982523 0.624061 0.362983
0.065447 0.736875 0.362983
0.193563 0.736875 0.362983
0.314068 0.736875 0.362983
0.430573 0.736875 0.362983
0.544364 0.736875 0.362983
0.656107 0.736875 0.362983
0.766211 0.736875 0.362983
0.874950 0.736875 0.362983
0.982523 0.736875 0.362983
0.065447 0.849156 0.362983
0.193563 0.849156 0.362983
0.314068 0.849156 0.362983
0.430573 0.849156 0.362983
0.544364 0.849156 0.362983
0.656107 0.849156 0.362983
0.766211 0.849156 0.362983
0.874950 0.849156 0.362983
0.982523 0.849156 0.362983
0.065447 0.960978 0.362983
0.193563 0.960978 0.362983
0.314068 0.960978 0.362983
0.430573 0.960978 0.362983
0.544364 0.960978 0.362983
0.656107 0.960978 0.362983
0.766211 0.960978 0.362983
0.874950 0.960978 0.362983
0.982523 0.960978 0.362983
0.065447 0.044496 0.468460
0.193563 0.044496 0.468460
0.314068 0.044496 0.468460
0.430573 0.044496 0.468460
0.544364 0.044496 0.468460
0.656107 0.044496 0.468460
0.766211 0.044496 0.468460
0.874950 0.044496 0.468460
0.982523 0.044496 0.468460
0.065447 0.164260 0.468460
0.193563 0.164260 0.468460
0.314068 0.164260 0.468460
0.430573 0.164260 0.468460
0.544364 0.164260 0.468460
0.656107 0.164260 0.468460
0.766211 0.164260 0.468460
0.874950 0.164260 0.468460
0.982523 0.164260 0.468460
0.065447 0.281077 0.468460
0.193563 0.281077 0.468460
0.314068 0.281077 0.468460
0.430573 0.281077 0.468460
0.544364 0.281077 0.468460
0.656107 0.281077 0.468460
0.766211 0.281077 0.468460
0.874950 0.281077 0.468460
0.982523 0.281077 0.468460
0.065447 0.396365 0.468460
0.193563 0.396365 0.468460
0.314068 0.396365 0.468460
0.430573 0.396365 0.468460
0.544364 0.396365 0.468460
0.656107 0.396365 0.468460
0.766211 0.396365 0.468460
0.874950 0.396365 0.468460
0.982523 0.396365 0.468460
0.065447 0.510609 0.468460
0.193563 0.510609 0.468460
0.314068 0.510609 0.468460
0.430573 0.510609 0.468460
0.544364 0.510609 0.468460
0.656107 0.510609 0.468460
0.766211 0.510609 0.468460
0.874950 0.510609 0.468460
0.982523 0.510609 0.468460
0.065447 0.624061 0.468460
0.193563 0.624061 0.468460
0.314068 0.624061 0.468460
0.430573 0.624061 0.468460
0.544364 0.624061 0.468460
0.656107 0.624061 0.468460
0.766211 0.624061 0.468460
0.874950 0.624061 0.468460
0.982523 0.624061 0.468460
0.065447 0.736875 0.468460
0.193563 0.736875 0.468460
0.314068 0.736875 0.468460
0.430573 0.736875 0.468460
0.544364 0.736875 0.468460
0.656107 0.736875 0.468460
0.766211 0.736875 0.468460
0.874950 0.736875 0.468460
0.982523 0.736875 0.468460
0.065447 0.849156 0.468460
0.193563 0.849156 0.468460
0.314068 0.849156 0.468460
0.430573 0.849156 0.468460
0.544364 0.849156 0.468460
0.656107 0.849156 0.468460
0.766211 0.849156 0.468460
0.874950 0.849156 0.468460
0.982523 0.849156 0.468460
0.065447 0.960978 0.468460
0.193563 0.960978 0.468460
0.314068 0.960978 0.468460
0.430573 0.960978 0.468460
0.544364 0.960978 0.468460
0.656107 0.960978 0.468460
0.766211 0.960978 0.468460
0.874950 0.960978 0.468460
0.982523 0.960978 0.468460
0.065447 0.044496 0.575089
0.193563 0.044496 0.575089
0.314068 0.044496 0.575089
0.430573 0.044496 0.575089
0.544364 0.044496 0.575089
0.656107 0.044496 0.575089
0.766211 0.044496 0.575089
0.874950 0.044496 0.575089
0.982523 0.044496 0.575089
0.065447 0.164260 0.575089
0.193563 0.164260 0.575089
0.314068 0.164260 0.575089
0.430573 0.164260 0.575089
0.544364 0.164260 0.575089
0.656107 0.164260 0.575089
0.766211 0.164260 0.575089
0.874950 0.164260 0.575089
0.982523 0.164260 0.575089
0.065447 0.281077 0.575089
0.193563 0.281077 0.575089
0.314068 0.281077 0.575089
0.430573 0.281077 0.575089
0.544364 0.281077 0.575089
0.656107 0.281077 0.575089
0.766211 0.281077 0.575089
0.874950 0.281077 0.575089
0.982523 0.281077 0.575089
0.065447 0.396365 0.575089
0.193563 0.396365 0.575089
0.314068 0.396365 0.575089
0.430573 0.396365 0.575089
0.544364 0.396365 0.575089
0.656107 0.396365 0.575089
0.766211 0.396365 0.575089
0.874950 0.396365 0.575089
0.982523 0.396365 0.575089
0.065447 0.510609 0.575089
0.193563 0.510609 0.575089
0.314068 0.510609 0.575089
0.430573 0.510609 0.575089
0.544364 0.510609 0.575089
0.656107 0.510609 0.575089
0.766211 0.510609 0.575089
0.874950 0.510609 0.575089
0.982523 0.510609 0.575089
0.065447 0.624061 0.575089
0.193563 0.624061 0.575089
0.314068 0.624061 0.575089
0.430573 0.624061 0.575089
0.544364 0.624061 0.575089
0.656107 0.624061 0.575089
0.766211 0.624061 0.575089
0.874950 0.624061 0.575089
0.982523 0.624061 0.575089
0.065447 0.736875 0.575089
0.193563 0.736875 0.575089
0.314068 0.736875 0.575089
0.430573 0.736875 0.575089
0.544364 0.736875 0.575089
0.656107 0.736875 0.575089
0.766211 0.736875 0.575089
0.874950 0.736875 0.575089
0.982523 0.736875 0.575089
0.065447 0.849156 0.575089
0.193563 0.849156 0.575089
0.314068 0.849156 0.575089
0.430573 0.849156 0.575089
0.544364 0.849156 0.575089
0.656107 0.849156 0.575089
0.766211 0.849156 0.575089
0.874950 0.849156 0.575089
0.982523 0.849156 0.575089
0.065447 0.960978 0.575089
0.193563 0.960978 0.575089
0.314068 0.960978 0.575089
0.430573 0.960978 0.575089
0.544364 0.960978 0.575089
0.656107 0.960978 0.575089
0.766211 0.960978 0.575089
0.874950 0.960978 0.575089
0.982523 0.960978 0.575089
0.065447 0.044496 0.682673
0.193563 0.044496 0.682673
0.314068 0.044496 0.682673
0.430573 0.044496 0.682673
0.544364 0.044496 0.682673
0.656107 0.044496 0.682673
0.766211 0.044496 0.682673
0.874950 0.044496 0.682673
0.982523 0.044496 0.682673
0.065447 0.164260 0.682673
0.193563 0.164260 0.682673
0.314068 0.164260 0.682673
0.430573 0.164260 0.682673
0.544364 0.164260 0.682673
0.656107 0.164260 0.682673
0.766211 0.164260 0.682673
0.874950 0.164260 0.682673
0.982523 0.164260 0.682673
0.065447 0.281077 0.682673
0.193563 0.281077 0.682673
0.314068 0.281077 0.682673
0.430573 0.281077 0.682673
0.544364 0.281077 0.682673
0.656107 0.281077 0.682673
0.766211 0.281077 0.682673
0.874950 0.281077 0.682673
0.982523 0.281077 0.682673
0.065447 0.396365 0.682673
0.193563 0.396365 0.682673
0.314068 0.396365 0.682673
0.430573 0.396365 0.682673
0.544364 0.396365 0.682673
0.656107 0.396365 0.682673
0.766211 0.396365 0.682673
0.874950 0.396365 0.682673
0.982523 0.396365 0.682673
0.065447 0.510609 0.682673
0.193563 0.510609 0.682673
0.314068 0.510609 0.682673
0.430573 0.510609 0.682673
0.544364 0.510609 0.682673
0.656107 0.510609 0.682673
0.766211 0.510609 0.682673
0.874950 0.510609 0.682673
0.982523 0.510609 0.682673
0.065447 0.624061 0.682673
0.193563 0.624061 0.682673
0.314068 0.624061 0.682673
0.430573 0.624061 0.682673
0.544364 0.624061 0.682673
0.656107 0.624061 0.682673
0.766211 0.624061 0.682673
0.874950 0.624061 0.682673
0.982523 0.624061 0.682673
0.065447 0.736875 0.682673
0.193563 0.736875 0.682673
0.314068 0.736875 0.682673
0.430573 0.736875 0.682673
0.544364 0.736875 0.682673
0.656107 0.736875 0.682673
0.766211 0.736875 0.682673
0.874950 0.736875 0.682673
0.982523 0.736875 0.682673
0.065447 0.849156 0.682673
0.193563 0.849156 0.682673
0.314068 0.849156 0.682673
0.430573 0.849156 0.682673
0.544364 0.849156 0.682673
0.656107 0.849156 0.682673
0.766211 0.849156 0.682673
0.874950 0.849156 0.682673
0.982523 0.849156 0.682673
0.065447 0.960978 0.682673
0.193563 0.960978 0.682673
0.314068 0.960978 0.682673
0.430573 0.960978 0.682673
0.544364 0.960978 0.682673
0.656107 0.960978 0.682673
0.766211 0.960978 0.682673
0.874950 0.960978 0.682673
0.982523 0.960978 0.682673
0.065447 0.044496 0.791074
0.193563 0.044496 0.791074
0.314068 0.044496 0.791074
0.430573 0.044496 0.791074
0.544364 0.044496 0.791074
0.656107 0.044496 0.791074
0.766211 0.044496 0.791074
0.874950 0.044496 0.791074
0.982523 0.044496 0.791074
0.065447 0.164260 0.791074
0.193563 0.164260 0.791074
0.314068 0.164260 0.791074
0.430573 0.164260 0.791074
0.544364 0.164260 0.791074
0.656107 0.164260 0.791074
0.766211 0.164260 0.791074
0.874950 0.164260 0.791074
0.982523 0.164260 0.791074
0.065447 0.281077 0.791074
0.193563 0.281077 0.791074
0.314068 0.281077 0.791074
0.430573 0.281077 0.791074
0.544364 0.281077 0.791074
0.656107 0.281077 0.791074
0.766211 0.281077 0.791074
0.874950 0.281077 0.791074
0.982523 0.281077 0.791074
0.065447 0.396365 0.791074
0.193563 0.396365 0.791074
0.314068 0.396365 0.791074
0.430573 0.396365 0.791074
0.544364 0.396365 0.791074
0.656107 0.396365 0.791074
0.766211 0.396365 0.791074
0.874950 0.396365 0.791074
0.982523 0.396365 0.791074
0.065447 0.510609 0.791074
0.193563 0.510609 0.791074
0.314068 0.510609 0.791074
0.430573 0.510609 0.791074
0.544364 0.510609 0.791074
0.656107 0.510609 0.791074
0.766211 0.510609 0.791074
0.874950 0.510609 0.791074
0.982523 0.510609 0.791074
0.065447 0.624061 0.791074
0.193563 0.624061 0.791074
0.314068 0.624061 0.791074
0.430573 0.624061 0.791074
0.544364 0.624061 0.791074
0.656107 0.624061 0.791074
0.766211 0.624061 0.791074
0.874950 0.624061 0.791074
0.982523 0.624061 0.791074
0.065447 0.736875 0.791074
0.193563 0.736875 0.791074
0.314068 0.736875 0.791074
0.430573 0.736875 0.791074
0.544364 0.736875 0.791074
0.656107 0.736875 0.791074
0.766211 0.736875 0.791074
0.874950 0.736875 0.791074
0.982523 0.736875 0.791074
0.065447 0.849156 0.791074
0.193563 0.849156 0.791074
0.314068 0.849156 0.791074
0.430573 0.849156 0.791074
0.544364 0.849156 0.791074
0.656107 0.849156 0.791074
0.766211 0.849156 0.791074
0.874950 0.849156 0.791074
0.982523 0.849156 0.791074
0.065447 0.960978 0.791074
0.193563 0.960978 0.791074
0.314068 0.960978 0.791074
0.430573 0.960978 0.791074
0.544364 0.960978 0.791074
0.656107 0.960978 0.791074
0.766211 0.960978 0.791074
0.874950 0.960978 0.791074
0.982523 0.960978 0.791074
0.065447 0.044496 0.900188
0.193563 0.044496 0.900188
0.314068 0.044496 0.900188
0.430573 0.044496 0.900188
0.544364 0.044496 0.900188
0.656107 0.044496 0.900188
0.766211 0.044496 0.900188
0.874950 0.044496 0.900188
0.982523 0.044496 0.900188
0.065447 0.164260 0.900188
0.193563 0.164260 0.900188
0.314068 0.164260 0.900188
0.430573 0.164260 0.900188
0.544364 0.164260 0.900188
0.656107 0.164260 0.900188
0.766211 0.164260 0.900188
0.874950 0.164260 0.900188
0.982523 0.164260 0.900188
0.065447 0.281077 0.900188
0.193563 0.281077 0.900188
0.314068 0.281077 0.900188
0.430573 0.281077 0.900188
0.544364 0.281077 0.900188
0.656107 0.281077 0.900188
0.766211 0.281077 0.900188
0.874950 0.281077 0.900188
0.982523 0.281077 0.900188
0.065447 0.396365 0.900188
0.193563 0.396365 0.900188
0.314068 0.396365 0.900188
0.430573 0.396365 0.900188
0.544364 0.396365 0.900188
0.656107 0.396365 0.900188
0.766211 0.396365 0.900188
0.874950 0.396365 0.900188
0.982523 0.396365 0.900188
0.065447 0.510609 0.900188
0.193563 0.510609 0.900188
0.314068 0.510609 0.900188
0.430573 0.510609 0.900188
0.544364 0.510609 0.900188
0.656107 0.510609 0.900188
0.766211 0.510609 0.900188
0.874950 0.510609 0.900188
0.982523 0.510609 0.900188
0.065447 0.624061 0.900188
0.193563 0.624061 0.900188
0.314068 0.624061 0.900188
0.430573 0.624061 0.900188
0.544364 0.624061 0.900188
0.656107 0.624061 0.900188
0.766211 0.624061 0.900188
0.874950 0.624061 0.900188
0.982523 0.624061 0.900188
0.065447 0.736875 0.900188
0.193563 0.736875 0.900188
0.314068 0.736875 0.900188
0.430573 0.736875 0.900188
0.544364 0.736875 0.900188
0.656107 0.736875 0.900188
0.766211 0.736875 0.900188
0.874950 0.736875 0.900188
0.982523 0.736875 0.900188
0.065447 0.849156 0.900188
0.193563 0.849156 0.900188
0.314068 0.849156 0.900188
0.430573 0.849156 0.900188
0.544364 0.849156 0.900188
0.656107 0.849156 0.900188
0.766211 0.849156 0.900188
0.874950 0.849156 0.900188
0.982523 0.849156 0.900188
0.065447 0.960978 0.900188
0.193563 0.960978 0.900188
0.314068 0.960978 0.900188
0.430573 0.960978 0.900188
0.544364 0.960978 0.900188
0.656107 0.960978 0.900188
0.766211 0.960978 0.900188
0.874950 0.960978 0.900188
0.982523 0.960978 0.900188
