luts/Warm Vintage.cube
# Warm Vintage LUT
LUT_3D_SIZE 33
0.065447 0.044496 0.058221
0.098674 0.044496 0.058221
0.130936 0.044496 0.058221
0.162514 0.044496 0.058221
0.193563 0.044496 0.058221
0.224183 0.044496 0.058221
0.254442 0.044496 0.058221
0.284391 0.044496 0.058221
0.314068 0.044496 0.058221
0.343502 0.044496 0.058221
0.372718 0.044496 0.058221
0.401736 0.044496 0.058221
0.430573 0.044496 0.058221
0.459243 0.044496 0.058221
0.487758 0.044496 0.058221
0.516129 0.044496 0.058221
0.544364 0.044496 0.058221
0.572473 0.044496 0.058221
0.600462 0.044496 0.058221
0.628338 0.044496 0.058221
0.656107 0.044496 0.058221
0.683774 0.044496 0.058221
0.711344 0.044496 0.058221
0.738822 0.044496 0.058221
0.766211 0.044496 0.058221
0.793515 0.044496 0.058221
0.820737 0.044496 0.058221
0.847881 0.044496 0.058221
0.874950 0.044496 0.058221
0.901946 0.044496 0.058221
0.928872 0.044496 0.058221
0.955731 0.044496 0.058221
0.982523 0.044496 0.058221
0.065447 0.074913 0.058221
0.098674 0.074913 0.058221
0.130936 0.074913 0.058221
0.162514 0.074913 0.058221
0.193563 0.074913 0.058221
0.224183 0.074913 0.058221
0.254442 0.074913 0.058221
0.284391 0.074913 0.058221
0.314068 0.074913 0.058221
0.343502 0.074913 0.058221
0.372718 0.074913 0.058221
0.401736 0.074913 0.058221
0.430573 0.074913 0.058221
0.459243 0.074913 0.058221
0.487758 0.074913 0.058221
0.516129 0.074913 0.058221
0.544364 0.074913 0.058221
0.572473 0.074913 0.058221
0.600462 0.074913 0.058221
0.628338 0.074913 0.058221
0.656107 0.074913 0.058221
0.683774 0.074913 0.058221
0.711344 0.074913 0.058221
0.738822 0.074913 0.058221
0.766211 0.074913 0.058221
0.793515 0.074913 0.058221
0.820737 0.074913 0.058221
0.847881 0.074913 0.058221
0.874950 0.074913 0.058221
0.901946 0.074913 0.058221
0.928872 0.074913 0.058221
0.955731 0.074913 0.058221
0.982523 0.074913 0.058221
0.065447 0.104941 0.058221
0.098674 0.104941 0.058221
0.130936 0.104941 0.058221
0.162514 0.104941 0.058221
0.193563 0.104941 0.058221
0.224183 0.104941 0.058221
0.254442 0.104941 0.058221
0.284391 0.104941 0.058221
0.314068 0.104941 0.058221
0.343502 0.104941 0.058221
0.372718 0.104941 0.058221
0.401736 0.104941 0.058221
0.430573 0.104941 0.058221
0.459243 0.104941 0.058221
0.487758 0.104941 0.058221
0.516129 0.104941 0.058221
0.544364 0.104941 0.058221
0.572473 0.104941 0.058221
0.600462 0.104941 0.058221
0.628338 0.104941 0.058221
0.656107 0.104941 0.058221
0.683774 0.104941 0.058221
0.711344 0.104941 0.058221
0.738822 0.104941 0.058221
0.766211 0.104941 0.058221
0.793515 0.104941 0.058221
0.820737 0.104941 0.058221
0.847881 0.104941 0.058221
0.874950 0.104941 0.058221
0.901946 0.104941 0.058221
0.928872 0.104941 0.058221
0.955731 0.104941 0.058221
0.982523 0.104941 0.058221
0.065447 0.134703 0.058221
0.098674 0.134703 0.058221
0.130936 0.134703 0.058221
0.162514 0.134703 0.058221
0.193563 0.134703 0.058221
0.224183 0.134703 0.058221
0.254442 0.134703 0.058221
0.284391 0.134703 0.058221
0.314068 0.134703 0.058221
0.343502 0.134703 0.058221
0.372718 0.134703 0.058221
0.401736 0.134703 0.058221
0.430573 0.134703 0.058221
0.459243 0.134703 0.058221
0.487758 0.134703 0.058221
0.516129 0.134703 0.058221
0.544364 0.134703 0.058221
0.572473 0.134703 0.058221
0.600462 0.134703 0.058221
0.628338 0.134703 0.058221
0.656107 0.134703 0.058221
0.683774 0.134703 0.058221
0.711344 0.134703 0.058221
0.738822 0.134703 0.058221
0.766211 0.134703 0.058221
0.793515 0.134703 0.058221
0.820737 0.134703 0.058221
0.847881 0.134703 0.058221
0.874950 0.134703 0.058221
0.901946 0.134703 0.058221
0.928872 0.134703 0.058221
0.955731 0.134703 0.058221
0.982523 0.134703 0.058221
0.065447 0.164260 0.058221
0.098674 0.164260 0.058221
0.130936 0.164260 0.058221
0.162514 0.164260 0.058221
0.193563 0.164260 0.058221
0.224183 0.164260 0.058221
0.254442 0.164260 0.058221
0.284391 0.164260 0.058221
0.314068 0.164260 0.058221
0.343502 0.164260 0.058221
0.372718 0.164260 0.058221
0.401736 0.164260 0.058221
0.430573 0.164260 0.058221
0.459243 0.164260 0.058221
0.487758 0.164260 0.058221
0.516129 0.164260 0.058221
0.544364 0.164260 0.058221
0.572473 0.164260 0.058221
0.600462 0.164260 0.058221
0.628338 0.164260 0.058221
0.656107 0.164260 0.058221
0.683774 0.164260 0.058221
0.711344 0.164260 0.058221
0.738822 0.164260 0.058221
0.766211 0.164260 0.058221
0.793515 0.164260 0.058221
0.820737 0.164260 0.058221
0.847881 0.164260 0.058221
0.874950 0.164260 0.058221
0.901946 0.164260 0.058221
0.928872 0.164260 0.058221
0.955731 0.164260 0.058221
0.982523 0.164260 0.058221
0.065447 0.193653 0.058221
0.098674 0.193653 0.058221
0.130936 0.193653 0.058221
0.162514 0.193653 0.058221
0.193563 0.193653 0.058221
0.224183 0.193653 0.058221
0.254442 0.193653 0.058221
0.284391 0.193653 0.058221
0.314068 0.193653 0.058221
0.343502 0.193653 0.058221
0.372718 0.193653 0.058221
0.401736 0.193653 0.058221
0.430573 0.193653 0.058221
0.459243 0.193653 0.058221
0.487758 0.193653 0.058221
0.516129 0.193653 0.058221
0.544364 0.193653 0.058221
0.572473 0.193653 0.058221
0.600462 0.193653 0.058221
0.628338 0.193653 0.058221
0.656107 0.193653 0.058221
0.683774 0.193653 0.058221
0.711344 0.193653 0.058221
0.738822 0.193653 0.058221
0.766211 0.193653 0.058221
0.793515 0.193653 0.058221
0.820737 0.193653 0.058221
0.847881 0.193653 0.058221
0.874950 0.193653 0.058221
0.901946 0.193653 0.058221
0.928872 0.193653 0.058221
0.955731 0.193653 0.058221
0.982523 0.193653 0.058221
0.065447 0.222908 0.058221
0.098674 0.222908 0.058221
0.130936 0.222908 0.058221
0.162514 0.222908 0.058221
0.193563 0.222908 0.058221
0.224183 0.222908 0.058221
0.254442 0.222908 0.058221
0.284391 0.222908 0.058221
0.314068 0.222908 0.058221
0.343502 0.222908 0.058221
0.372718 0.222908 0.058221
0.401736 0.222908 0.058221
0.430573 0.222908 0.058221
0.459243 0.222908 0.058221
0.487758 0.222908 0.058221
0.516129 0.222908 0.058221
0.544364 0.222908 0.058221
0.572473 0.222908 0.058221
0.600462 0.222908 0.058221
0.628338 0.222908 0.058221
0.656107 0.222908 0.058221
0.683774 0.222908 0.058221
0.711344 0.222908 0.058221
0.738822 0.222908 0.058221
0.766211 0.222908 0.058221
0.793515 0.222908 0.058221
0.820737 0.222908 0.058221
0.847881 0.222908 0.058221
0.874950 0.222908 0.058221
0.901946 0.222908 0.058221
0.928872 0.222908 0.058221
0.955731 0.222908 0.058221
0.982523 0.222908 0.058221
0.065447 0.252045 0.058221
0.098674 0.252045 0.058221
0.130936 0.252045 0.058221
0.162514 0.252045 0.058221
0.193563 0.252045 0.058221
0.224183 0.252045 0.058221
0.254442 0.252045 0.058221
0.284391 0.252045 0.058221
0.314068 0.252045 0.058221
0.343502 0.252045 0.058221
0.372718 0.252045 0.058221
0.401736 0.252045 0.058221
0.430573 0.252045 0.058221
0.459243 0.252045 0.058221
0.487758 0.252045 0.058221
0.516129 0.252045 0.058221
0.544364 0.252045 0.058221
0.572473 0.252045 0.058221
0.600462 0.252045 0.058221
0.628338 0.252045 0.058221
0.656107 0.252045 0.058221
0.683774 0.252045 0.058221
0.711344 0.252045 0.058221
0.738822 0.252045 0.058221
0.766211 0.252045 0.058221
0.793515 0.252045 0.058221
0.820737 0.252045 0.058221
0.847881 0.252045 0.058221
0.874950 0.252045 0.058221
0.901946 0.252045 0.058221
0.928872 0.252045 0.058221
0.955731 0.252045 0.058221
0.982523 0.252045 0.058221
0.065447 0.281077 0.058221
0.098674 0.281077 0.058221
0.130936 0.281077 0.058221
0.162514 0.281077 0.058221
0.193563 0.281077 0.058221
0.224183 0.281077 0.058221
0.254442 0.281077 0.058221
0.284391 0.281077 0.058221
0.314068 0.281077 0.058221
0.343502 0.281077 0.058221
0.372718 0.281077 0.058221
0.401736 0.281077 0.058221
0.430573 0.281077 0.058221
0.459243 0.281077 0.058221
0.487758 0.281077 0.058221
0.516129 0.281077 0.058221
0.544364 0.281077 0.058221
0.572473 0.281077 0.058221
0.600462 0.281077 0.058221
0.628338 0.281077 0.058221
0.656107 0.281077 0.058221
0.683774 0.281077 0.058221
0.711344 0.281077 0.058221
0.738822 0.281077 0.058221
0.766211 0.281077 0.058221
0.793515 0.281077 0.058221
0.820737 0.281077 0.058221
0.847881 0.281077 0.058221
0.874950 0.281077 0.058221
0.901946 0.281077 0.058221
0.928872 0.281077 0.058221
0.955731 0.281077 0.058221
0.982523 0.281077 0.058221
0.065447 0.310017 0.058221
0.098674 0.310017 0.058221
0.130936 0.310017 0.058221
0.162514 0.310017 0.058221
0.193563 0.310017 0.058221
0.224183 0.310017 0.058221
0.254442 0.310017 0.058221
0.284391 0.310017 0.058221
0.314068 0.310017 0.058221
0.343502 0.310017 0.058221
0.372718 0.310017 0.058221
0.401736 0.310017 0.058221
0.430573 0.310017 0.058221
0.459243 0.310017 0.058221
0.487758 0.310017 0.058221
0.516129 0.310017 0.058221
0.544364 0.310017 0.058221
0.572473 0.310017 0.058221
0.600462 0.310017 0.058221
0.628338 0.310017 0.058221
0.656107 0.310017 0.058221
0.683774 0.310017 0.058221
0.711344 0.310017 0.058221
0.738822 0.310017 0.058221
0.766211 0.310017 0.058221
0.793515 0.310017 0.058221
0.820737 0.310017 0.058221
0.847881 0.310017 0.058221
0.874950 0.310017 0.058221
0.901946 0.310017 0.058221
0.928872 0.310017 0.058221
0.955731 0.310017 0.058221
0.982523 0.310017 0.058221
0.065447 0.338873 0.058221
0.098674 0.338873 0.058221
0.130936 0.338873 0.058221
0.162514 0.338873 0.058221
0.193563 0.338873 0.058221
0.224183 0.338873 0.058221
0.254442 0.338873 0.058221
0.284391 0.338873 0.058221
0.314068 0.338873 0.058221
0.343502 0.338873 0.058221
0.372718 0.338873 0.058221
0.401736 0.338873 0.058221
0.430573 0.338873 0.058221
0.459243 0.338873 0.058221
0.487758 0.338873 0.058221
0.516129 0.338873 0.058221
0.544364 0.338873 0.058221
0.572473 0.338873 0.058221
0.600462 0.338873 0.058221
0.628338 0.338873 0.058221
0.656107 0.338873 0.058221
0.683774 0.338873 0.058221
0.711344 0.338873 0.058221
0.738822 0.338873 0.058221
0.766211 0.338873 0.058221
0.793515 0.338873 0.058221
0.820737 0.338873 0.058221
0.847881 0.338873 0.058221
0.874950 0.338873 0.058221
0.901946 0.338873 0.058221
0.928872 0.338873 0.058221
0.955731 0.338873 0.058221
0.982523 0.338873 0.058221
0.065447 0.367654 0.058221
0.098674 0.367654 0.058221
0.130936 0.367654 0.058221
0.162514 0.367654 0.058221
0.193563 0.367654 0.058221
0.224183 0.367654 0.058221
0.254442 0.367654 0.058221
0.284391 0.367654 0.058221
0.314068 0.367654 0.058221
0.343502 0.367654 0.058221
0.372718 0.367654 0.058221
0.401736 0.367654 0.058221
0.430573 0.367654 0.058221
0.459243 0.367654 0.058221
0.487758 0.367654 0.058221
0.516129 0.367654 0.058221
0.544364 0.367654 0.058221
0.572473 0.367654 0.058221
0.600462 0.367654 0.058221
0.628338 0.367654 0.058221
0.656107 0.367654 0.058221
0.683774 0.367654 0.058221
0.711344 0.367654 0.058221
0.738822 0.367654 0.058221
0.766211 0.367654 0.058221
0.793515 0.367654 0.058221
0.820737 0.367654 0.058221
0.847881 0.367654 0.058221
0.874950 0.367654 0.058221
0.901946 0.367654 0.058221
0.928872 0.367654 0.058221
0.955731 0.367654 0.058221
0.982523 0.367654 0.058221
0.065447 0.396365 0.058221
0.098674 0.396365 0.058221
0.130936 0.396365 0.058221
0.162514 0.396365 0.058221
0.193563 0.396365 0.058221
0.224183 0.396365 0.058221
0.254442 0.396365 0.058221
0.284391 0.396365 0.058221
0.314068 0.396365 0.058221
0.343502 0.396365 0.058221
0.372718 0.396365 0.058221
0.401736 0.396365 0.058221
0.430573 0.396365 0.058221
0.459243 0.396365 0.058221
0.487758 0.396365 0.058221
0.516129 0.396365 0.058221
0.544364 0.396365 0.058221
0.572473 0.396365 0.058221
0.600462 0.396365 0.058221
0.628338 0.396365 0.058221
0.656107 0.396365 0.058221
0.683774 0.396365 0.058221
0.711344 0.396365 0.058221
0.738822 0.396365 0.058221
0.766211 0.396365 0.058221
0.793515 0.396365 0.058221
0.820737 0.396365 0.058221
0.847881 0.396365 0.058221
0.874950 0.396365 0.058221
0.901946 0.396365 0.058221
0.928872 0.396365 0.058221
0.955731 0.396365 0.058221
0.982523 0.396365 0.058221
0.065447 0.425011 0.058221
0.098674 0.425011 0.058221
0.130936 0.425011 0.058221
0.162514 0.425011 0.058221
0.193563 0.425011 0.058221
0.224183 0.425011 0.058221
0.254442 0.425011 0.058221
0.284391 0.425011 0.058221
0.314068 0.425011 0.058221
0.343502 0.425011 0.058221
0.372718 0.425011 0.058221
0.401736 0.425011 0.058221
0.430573 0.425011 0.058221
0.459243 0.425011 0.058221
0.487758 0.425011 0.058221
0.516129 0.425011 0.058221
0.544364 0.425011 0.058221
0.572473 0.425011 0.058221
0.600462 0.425011 0.058221
0.628338 0.425011 0.058221
0.656107 0.425011 0.058221
0.683774 0.425011 0.058221
0.711344 0.425011 0.058221
0.738822 0.425011 0.058221
0.766211 0.425011 0.058221
0.793515 0.425011 0.058221
0.820737 0.425011 0.058221
0.847881 0.425011 0.058221
0.874950 0.425011 0.058221
0.901946 0.425011 0.058221
0.928872 0.425011 0.058221
0.955731 0.425011 0.058221
0.982523 0.425011 0.058221
0.065447 0.453598 0.058221
0.098674 0.453598 0.058221
0.130936 0.453598 0.058221
0.162514 0.453598 0.058221
0.193563 0.453598 0.058221
0.224183 0.453598 0.058221
0.254442 0.453598 0.058221
0.284391 0.453598 0.058221
0.314068 0.453598 0.058221
0.343502 0.453598 0.058221
0.372718 0.453598 0.058221
0.401736 0.453598 0.058221
0.430573 0.453598 0.058221
0.459243 0.453598 0.058221
0.487758 0.453598 0.058221
0.516129 0.453598 0.058221
0.544364 0.453598 0.058221
0.572473 0.453598 0.058221
0.600462 0.453598 0.058221
0.628338 0.453598 0.058221
0.656107 0.453598 0.058221
0.683774 0.453598 0.058221
0.711344 0.453598 0.058221
0.738822 0.453598 0.058221
0.766211 0.453598 0.058221
0.793515 0.453598 0.058221
0.820737 0.453598 0.058221
0.847881 0.453598 0.058221
0.874950 0.453598 0.058221
0.901946 0.453598 0.058221
0.928872 0.453598 0.058221
0.955731 0.453598 0.058221
0.982523 0.453598 0.058221
0.065447 0.482130 0.058221
0.098674 0.482130 0.058221
0.130936 0.482130 0.058221
0.162514 0.482130 0.058221
0.193563 0.482130 0.058221
0.224183 0.482130 0.058221
0.254442 0.482130 0.058221
0.284391 0.482130 0.058221
0.314068 0.482130 0.058221
0.343502 0.482130 0.058221
0.372718 0.482130 0.058221
0.401736 0.482130 0.058221
0.430573 0.482130 0.058221
0.459243 0.482130 0.058221
0.487758 0.482130 0.058221
0.516129 0.482130 0.058221
0.544364 0.482130 0.058221
0.572473 0.482130 0.058221
0.600462 0.482130 0.058221
0.628338 0.482130 0.058221
0.656107 0.482130 0.058221
0.683774 0.482130 0.058221
0.711344 0.482130 0.058221
0.738822 0.482130 0.058221
0.766211 0.482130 0.058221
0.793515 0.482130 0.058221
0.820737 0.482130 0.058221
0.847881 0.482130 0.058221
0.874950 0.482130 0.058221
0.901946 0.482130 0.058221
0.928872 0.482130 0.058221
0.955731 0.482130 0.058221
0.982523 0.482130 0.058221
0.065447 0.510609 0.058221
0.098674 0.510609 0.058221
0.130936 0.510609 0.058221
0.162514 0.510609 0.058221
0.193563 0.510609 0.058221
0.224183 0.510609 0.058221
0.254442 0.510609 0.058221
0.284391 0.510609 0.058221
0.314068 0.510609 0.058221
0.343502 0.510609 0.058221
0.372718 0.510609 0.058221
0.401736 0.510609 0.058221
0.430573 0.510609 0.058221
0.459243 0.510609 0.058221
0.487758 0.510609 0.058221
0.516129 0.510609 0.058221
0.544364 0.510609 0.058221
0.572473 0.510609 0.058221
0.600462 0.510609 0.058221
0.628338 0.510609 0.058221
0.656107 0.510609 0.058221
0.683774 0.510609 0.058221
0.711344 0.510609 0.058221
0.738822 0.510609 0.058221
0.766211 0.510609 0.058221
0.793515 0.510609 0.058221
0.820737 0.510609 0.058221
0.847881 0.510609 0.058221
0.874950 0.510609 0.058221
0.901946 0.510609 0.058221
0.928872 0.510609 0.058221
0.955731 0.510609 0.058221
0.982523 0.510609 0.058221
0.065447 0.539039 0.058221
0.098674 0.539039 0.058221
0.130936 0.539039 0.058221
0.162514 0.539039 0.058221
0.193563 0.539039 0.058221
0.224183 0.539039 0.058221
0.254442 0.539039 0.058221
0.284391 0.539039 0.058221
0.314068 0.539039 0.058221
0.343502 0.539039 0.058221
0.372718 0.539039 0.058221
0.401736 0.539039 0.058221
0.430573 0.539039 0.058221
0.459243 0.539039 0.058221
0.487758 0.539039 0.058221
0.516129 0.539039 0.058221
0.544364 0.539039 0.058221
0.572473 0.539039 0.058221
0.600462 0.539039 0.058221
0.628338 0.539039 0.058221
0.656107 0.539039 0.058221
0.683774 0.539039 0.058221
0.711344 0.539039 0.058221
0.738822 0.539039 0.058221
0.766211 0.539039 0.058221
0.793515 0.539039 0.058221
0.820737 0.539039 0.058221
0.847881 0.539039 0.058221
0.874950 0.539039 0.058221
0.901946 0.539039 0.058221
0.928872 0.539039 0.058221
0.955731 0.539039 0.058221
0.982523 0.539039 0.058221
0.065447 0.567423 0.058221
0.098674 0.567423 0.058221
0.130936 0.567423 0.058221
0.162514 0.567423 0.058221
0.193563 0.567423 0.058221
0.224183 0.567423 0.058221
0.254442 0.567423 0.058221
0.284391 0.567423 0.058221
0.314068 0.567423 0.058221
0.343502 0.567423 0.058221
0.372718 0.567423 0.058221
0.401736 0.567423 0.058221
0.430573 0.567423 0.058221
0.459243 0.567423 0.058221
0.487758 0.567423 0.058221
0.516129 0.567423 0.058221
0.544364 0.567423 0.058221
0.572473 0.567423 0.058221
0.600462 0.567423 0.058221
0.628338 0.567423 0.058221
0.656107 0.567423 0.058221
0.683774 0.567423 0.058221
0.711344 0.567423 0.058221
0.738822 0.567423 0.058221
0.766211 0.567423 0.058221
0.793515 0.567423 0.058221
0.820737 0.567423 0.058221
0.847881 0.567423 0.058221
0.874950 0.567423 0.058221
0.901946 0.567423 0.058221
0.928872 0.567423 0.058221
0.955731 0.567423 0.058221
0.982523 0.567423 0.058221
0.065447 0.595763 0.058221
0.098674 0.595763 0.058221
0.130936 0.595763 0.058221
0.162514 0.595763 0.058221
0.193563 0.595763 0.058221
0.224183 0.595763 0.058221
0.254442 0.595763 0.058221
0.284391 0.595763 0.058221
0.314068 0.595763 0.058221
0.343502 0.595763 0.058221
0.372718 0.595763 0.058221
0.401736 0.595763 0.058221
0.430573 0.595763 0.058221
0.459243 0.595763 0.058221
0.487758 0.595763 0.058221
0.516129 0.595763 0.058221
0.544364 0.595763 0.058221
0.572473 0.595763 0.058221
0.600462 0.595763 0.058221
0.628338 0.595763 0.058221
0.656107 0.595763 0.058221
0.683774 0.595763 0.058221
0.711344 0.595763 0.058221
0.738822 0.595763 0.058221
0.766211 0.595763 0.058221
0.793515 0.595763 0.058221
0.820737 0.595763 0.058221
0.847881 0.595763 0.058221
0.874950 0.595763 0.058221
0.901946 0.595763 0.058221
0.928872 0.595763 0.058221
0.955731 0.595763 0.058221
0.982523 0.595763 0.058221
0.065447 0.624061 0.058221
0.098674 0.624061 0.058221
0.130936 0.624061 0.058221
0.162514 0.624061 0.058221
0.193563 0.624061 0.058221
0.224183 0.624061 0.058221
0.254442 0.624061 0.058221
0.284391 0.624061 0.058221
0.314068 0.624061 0.058221
0.343502 0.624061 0.058221
0.372718 0.624061 0.058221
0.401736 0.624061 0.058221
0.430573 0.624061 0.058221
0.459243 0.624061 0.058221
0.487758 0.624061 0.058221
0.516129 0.624061 0.058221
0.544364 0.624061 0.058221
0.572473 0.624061 0.058221
0.600462 0.624061 0.058221
0.628338 0.624061 0.058221
0.656107 0.624061 0.058221
0.683774 0.624061 0.058221
0.711344 0.624061 0.058221
0.738822 0.624061 0.058221
0.766211 0.624061 0.058221
0.793515 0.624061 0.058221
0.820737 0.624061 0.058221
0.847881 0.624061 0.058221
0.874950 0.624061 0.058221
0.901946 0.624061 0.058221
0.928872 0.624061 0.058221
0.955731 0.624061 0.058221
0.982523 0.624061 0.058221
0.065447 0.652320 0.058221
0.098674 0.652320 0.058221
0.130936 0.652320 0.058221
0.162514 0.652320 0.058221
0.193563 0.652320 0.058221
0.224183 0.652320 0.058221
0.254442 0.652320 0.058221
0.284391 0.652320 0.058221
0.314068 0.652320 0.058221
0.343502 0.652320 0.058221
0.372718 0.652320 0.058221
0.401736 0.652320 0.058221
0.430573 0.652320 0.058221
0.459243 0.652320 0.058221
0.487758 0.652320 0.058221
0.516129 0.652320 0.058221
0.544364 0.652320 0.058221
0.572473 0.652320 0.058221
0.600462 0.652320 0.058221
0.628338 0.652320 0.058221
0.656107 0.652320 0.058221
0.683774 0.652320 0.058221
0.711344 0.652320 0.058221
0.738822 0.652320 0.058221
0.766211 0.652320 0.058221
0.793515 0.652320 0.058221
0.820737 0.652320 0.058221
0.847881 0.652320 0.058221
0.874950 0.652320 0.058221
0.901946 0.652320 0.058221
0.928872 0.652320 0.058221
0.955731 0.652320 0.058221
0.982523 0.652320 0.058221
0.065447 0.680541 0.058221
0.098674 0.680541 0.058221
0.130936 0.680541 0.058221
0.162514 0.680541 0.058221
0.193563 0.680541 0.058221
0.224183 0.680541 0.058221
0.254442 0.680541 0.058221
0.284391 0.680541 0.058221
0.314068 0.680541 0.058221
0.343502 0.680541 0.058221
0.372718 0.680541 0.058221
0.401736 0.680541 0.058221
0.430573 0.680541 0.058221
0.459243 0.680541 0.058221
0.487758 0.680541 0.058221
0.516129 0.680541 0.058221
0.544364 0.680541 0.058221
0.572473 0.680541 0.058221
0.600462 0.680541 0.058221
0.628338 0.680541 0.058221
0.656107 0.680541 0.058221
0.683774 0.680541 0.058221
0.711344 0.680541 0.058221
0.738822 0.680541 0.058221
0.766211 0.680541 0.058221
0.793515 0.680541 0.058221
0.820737 0.680541 0.058221
0.847881 0.680541 0.058221
0.874950 0.680541 0.058221
0.901946 0.680541 0.058221
0.928872 0.680541 0.058221
0.955731 0.680541 0.058221
0.982523 0.680541 0.058221
0.065447 0.708725 0.058221
0.098674 0.708725 0.058221
0.130936 0.708725 0.058221
0.162514 0.708725 0.058221
0.193563 0.708725 0.058221
0.224183 0.708725 0.058221
0.254442 0.708725 0.058221
0.284391 0.708725 0.058221
0.314068 0.708725 0.058221
0.343502 0.708725 0.058221
0.372718 0.708725 0.058221
0.401736 0.708725 0.058221
0.430573 0.708725 0.058221
0.459243 0.708725 0.058221
0.487758 0.708725 0.058221
0.516129 0.708725 0.058221
0.544364 0.708725 0.058221
0.572473 0.708725 0.058221
0.600462 0.708725 0.058221
0.628338 0.708725 0.058221
0.656107 0.708725 0.058221
0.683774 0.708725 0.058221
0.711344 0.708725 0.058221
0.738822 0.708725 0.058221
0.766211 0.708725 0.058221
0.793515 0.708725 0.058221
0.820737 0.708725 0.058221
0.847881 0.708725 0.058221
0.874950 0.708725 0.058221
0.901946 0.708725 0.058221
0.928872 0.708725 0.058221
0.955731 0.708725 0.058221
0.982523 0.708725 0.058221
0.065447 0.736875 0.058221
0.098674 0.736875 0.058221
0.130936 0.736875 0.058221
0.162514 0.736875 0.058221
0.193563 0.736875 0.058221
0.224183 0.736875 0.058221
0.254442 0.736875 0.058221
0.284391 0.736875 0.058221
0.314068 0.736875 0.058221
0.343502 0.736875 0.058221
0.372718 0.736875 0.058221
0.401736 0.736875 0.058221
0.430573 0.736875 0.058221
0.459243 0.736875 0.058221
0.487758 0.736875 0.058221
0.516129 0.736875 0.058221
0.544364 0.736875 0.058221
0.572473 0.736875 0.058221
0.600462 0.736875 0.058221
0.628338 0.736875 0.058221
0.656107 0.736875 0.058221
0.683774 0.736875 0.058221
0.711344 0.736875 0.058221
0.738822 0.736875 0.058221
0.766211 0.736875 0.058221
0.793515 0.736875 0.058221
0.820737 0.736875 0.058221
0.847881 0.736875 0.058221
0.874950 0.736875 0.058221
0.901946 0.736875 0.058221
0.928872 0.736875 0.058221
0.955731 0.736875 0.058221
0.982523 0.736875 0.058221
0.065447 0.764992 0.058221
0.098674 0.764992 0.058221
0.130936 0.764992 0.058221
0.162514 0.764992 0.058221
0.193563 0.764992 0.058221
0.224183 0.764992 0.058221
0.254442 0.764992 0.058221
0.284391 0.764992 0.058221
0.314068 0.764992 0.058221
0.343502 0.764992 0.058221
0.372718 0.764992 0.058221
0.401736 0.764992 0.058221
0.430573 0.764992 0.058221
0.459243 0.764992 0.058221
0.487758 0.764992 0.058221
0.516129 0.764992 0.058221
0.544364 0.764992 0.058221
0.572473 0.764992 0.058221
0.600462 0.764992 0.058221
0.628338 0.764992 0.058221
0.656107 0.764992 0.058221
0.683774 0.764992 0.058221
0.711344 0.764992 0.058221
0.738822 0.764992 0.058221
0.766211 0.764992 0.058221
0.793515 0.764992 0.058221
0.820737 0.764992 0.058221
0.847881 0.764992 0.058221
0.874950 0.764992 0.058221
0.901946 0.764992 0.058221
0.928872 0.764992 0.058221
0.955731 0.764992 0.058221
0.982523 0.764992 0.058221
0.065447 0.793077 0.058221
0.098674 0.793077 0.058221
0.130936 0.793077 0.058221
0.162514 0.793077 0.058221
0.193563 0.793077 0.058221
0.224183 0.793077 0.058221
0.254442 0.793077 0.058221
0.284391 0.793077 0.058221
0.314068 0.793077 0.058221
0.343502 0.793077 0.058221
0.372718 0.793077 0.058221
0.401736 0.793077 0.058221
0.430573 0.793077 0.058221
0.459243 0.793077 0.058221
0.487758 0.793077 0.058221
0.516129 0.793077 0.058221
0.544364 0.793077 0.058221
0.572473 0.793077 0.058221
0.600462 0.793077 0.058221
0.628338 0.793077 0.058221
0.656107 0.793077 0.058221
0.683774 0.793077 0.058221
0.711344 0.793077 0.058221
0.738822 0.793077 0.058221
0.766211 0.793077 0.058221
0.793515 0.793077 0.058221
0.820737 0.793077 0.058221
0.847881 0.793077 0.058221
0.874950 0.793077 0.058221
